( SensorMount )
( File created: Monday, November 14, 2022 - 04:21 PM)
( USBCNC Postprocessor )
( Material Size)
( X= 50.000, Y= 15.325, Z= 8.000)
()
(Toolpaths used in this file:)
(輪郭 1)
(ポケット 2)
(輪郭 2)
(Tools used in this file: )
(0 = エンドミル {2 mm} POM ABS)
N120G00G21G17G90G40G49
N130G80
N140 (エンドミル {2 mm} POM ABS)
N150G00G43Z20.000H0
N160S4800M03
N170(Toolpath:- 輪郭 1)
N180()
N190G94
N200X0.000Y0.000F500.0
N210G00X4.675Y5.500Z6.000
N220G1Z-0.500F60.0
N230G3X6.000Y4.175I1.325J0.000F500.0
N240G3X7.325Y5.500I0.000J1.325
N250G3X6.000Y6.825I-1.325J0.000
N260G3X4.675Y5.500I0.000J-1.325
N270G1Z-1.000F60.0
N280G3X6.000Y4.175I1.325J0.000F500.0
N290G3X7.325Y5.500I0.000J1.325
N300G3X6.000Y6.825I-1.325J0.000
N310G3X4.675Y5.500I0.000J-1.325
N320G1Z-1.500F60.0
N330G3X6.000Y4.175I1.325J0.000F500.0
N340G3X7.325Y5.500I0.000J1.325
N350G3X6.000Y6.825I-1.325J0.000
N360G3X4.675Y5.500I0.000J-1.325
N370G1Z-2.000F60.0
N380G3X6.000Y4.175I1.325J0.000F500.0
N390G3X7.325Y5.500I0.000J1.325
N400G3X6.000Y6.825I-1.325J0.000
N410G3X4.675Y5.500I0.000J-1.325
N420G1Z-2.500F60.0
N430G3X6.000Y4.175I1.325J0.000F500.0
N440G3X7.325Y5.500I0.000J1.325
N450G3X6.000Y6.825I-1.325J0.000
N460G3X4.675Y5.500I0.000J-1.325
N470G1Z-3.000F60.0
N480G3X6.000Y4.175I1.325J0.000F500.0
N490G3X7.325Y5.500I0.000J1.325
N500G3X6.000Y6.825I-1.325J0.000
N510G3X4.675Y5.500I0.000J-1.325
N520G1Z-3.500F60.0
N530G3X6.000Y4.175I1.325J0.000F500.0
N540G3X7.325Y5.500I0.000J1.325
N550G3X6.000Y6.825I-1.325J0.000
N560G3X4.675Y5.500I0.000J-1.325
N570G1Z-4.000F60.0
N580G3X6.000Y4.175I1.325J0.000F500.0
N590G3X7.325Y5.500I0.000J1.325
N600G3X6.000Y6.825I-1.325J0.000
N610G3X4.675Y5.500I0.000J-1.325
N620G1Z-4.500F60.0
N630G3X6.000Y4.175I1.325J0.000F500.0
N640G3X7.325Y5.500I0.000J1.325
N650G3X6.000Y6.825I-1.325J0.000
N660G3X4.675Y5.500I0.000J-1.325
N670G1Z-5.000F60.0
N680G3X6.000Y4.175I1.325J0.000F500.0
N690G3X7.325Y5.500I0.000J1.325
N700G3X6.000Y6.825I-1.325J0.000
N710G3X4.675Y5.500I0.000J-1.325
N720G1Z-5.500F60.0
N730G3X6.000Y4.175I1.325J0.000F500.0
N740G3X7.325Y5.500I0.000J1.325
N750G3X6.000Y6.825I-1.325J0.000
N760G3X4.675Y5.500I0.000J-1.325
N770G1Z-6.000F60.0
N780G3X6.000Y4.175I1.325J0.000F500.0
N790G3X7.325Y5.500I0.000J1.325
N800G3X6.000Y6.825I-1.325J0.000
N810G3X4.675Y5.500I0.000J-1.325
N820G1Z-6.500F60.0
N830G3X6.000Y4.175I1.325J0.000F500.0
N840G3X7.325Y5.500I0.000J1.325
N850G3X6.000Y6.825I-1.325J0.000
N860G3X4.675Y5.500I0.000J-1.325
N870G1Z-7.000F60.0
N880G3X6.000Y4.175I1.325J0.000F500.0
N890G3X7.325Y5.500I0.000J1.325
N900G3X6.000Y6.825I-1.325J0.000
N910G3X4.675Y5.500I0.000J-1.325
N920G1Z-7.500F60.0
N930G3X6.000Y4.175I1.325J0.000F500.0
N940G3X7.325Y5.500I0.000J1.325
N950G3X6.000Y6.825I-1.325J0.000
N960G3X4.675Y5.500I0.000J-1.325
N970G1Z-8.000F60.0
N980G3X6.000Y4.175I1.325J0.000F500.0
N990G3X7.325Y5.500I0.000J1.325
N1000G3X6.000Y6.825I-1.325J0.000
N1010G3X4.675Y5.500I0.000J-1.325
N1020G1Z-8.500F60.0
N1030G3X6.000Y4.175I1.325J0.000F500.0
N1040G3X7.325Y5.500I0.000J1.325
N1050G3X6.000Y6.825I-1.325J0.000
N1060G3X4.675Y5.500I0.000J-1.325
N1070G00Z6.000
N1080G00X16.675
N1090G1Z-0.500F60.0
N1100G3X18.000Y4.175I1.325J0.000F500.0
N1110G3X19.325Y5.500I0.000J1.325
N1120G3X18.000Y6.825I-1.325J0.000
N1130G3X16.675Y5.500I0.000J-1.325
N1140G1Z-1.000F60.0
N1150G3X18.000Y4.175I1.325J0.000F500.0
N1160G3X19.325Y5.500I0.000J1.325
N1170G3X18.000Y6.825I-1.325J0.000
N1180G3X16.675Y5.500I0.000J-1.325
N1190G1Z-1.500F60.0
N1200G3X18.000Y4.175I1.325J0.000F500.0
N1210G3X19.325Y5.500I0.000J1.325
N1220G3X18.000Y6.825I-1.325J0.000
N1230G3X16.675Y5.500I0.000J-1.325
N1240G1Z-2.000F60.0
N1250G3X18.000Y4.175I1.325J0.000F500.0
N1260G3X19.325Y5.500I0.000J1.325
N1270G3X18.000Y6.825I-1.325J0.000
N1280G3X16.675Y5.500I0.000J-1.325
N1290G1Z-2.500F60.0
N1300G3X18.000Y4.175I1.325J0.000F500.0
N1310G3X19.325Y5.500I0.000J1.325
N1320G3X18.000Y6.825I-1.325J0.000
N1330G3X16.675Y5.500I0.000J-1.325
N1340G1Z-3.000F60.0
N1350G3X18.000Y4.175I1.325J0.000F500.0
N1360G3X19.325Y5.500I0.000J1.325
N1370G3X18.000Y6.825I-1.325J0.000
N1380G3X16.675Y5.500I0.000J-1.325
N1390G1Z-3.500F60.0
N1400G3X18.000Y4.175I1.325J0.000F500.0
N1410G3X19.325Y5.500I0.000J1.325
N1420G3X18.000Y6.825I-1.325J0.000
N1430G3X16.675Y5.500I0.000J-1.325
N1440G1Z-4.000F60.0
N1450G3X18.000Y4.175I1.325J0.000F500.0
N1460G3X19.325Y5.500I0.000J1.325
N1470G3X18.000Y6.825I-1.325J0.000
N1480G3X16.675Y5.500I0.000J-1.325
N1490G1Z-4.500F60.0
N1500G3X18.000Y4.175I1.325J0.000F500.0
N1510G3X19.325Y5.500I0.000J1.325
N1520G3X18.000Y6.825I-1.325J0.000
N1530G3X16.675Y5.500I0.000J-1.325
N1540G1Z-5.000F60.0
N1550G3X18.000Y4.175I1.325J0.000F500.0
N1560G3X19.325Y5.500I0.000J1.325
N1570G3X18.000Y6.825I-1.325J0.000
N1580G3X16.675Y5.500I0.000J-1.325
N1590G1Z-5.500F60.0
N1600G3X18.000Y4.175I1.325J0.000F500.0
N1610G3X19.325Y5.500I0.000J1.325
N1620G3X18.000Y6.825I-1.325J0.000
N1630G3X16.675Y5.500I0.000J-1.325
N1640G1Z-6.000F60.0
N1650G3X18.000Y4.175I1.325J0.000F500.0
N1660G3X19.325Y5.500I0.000J1.325
N1670G3X18.000Y6.825I-1.325J0.000
N1680G3X16.675Y5.500I0.000J-1.325
N1690G1Z-6.500F60.0
N1700G3X18.000Y4.175I1.325J0.000F500.0
N1710G3X19.325Y5.500I0.000J1.325
N1720G3X18.000Y6.825I-1.325J0.000
N1730G3X16.675Y5.500I0.000J-1.325
N1740G1Z-7.000F60.0
N1750G3X18.000Y4.175I1.325J0.000F500.0
N1760G3X19.325Y5.500I0.000J1.325
N1770G3X18.000Y6.825I-1.325J0.000
N1780G3X16.675Y5.500I0.000J-1.325
N1790G1Z-7.500F60.0
N1800G3X18.000Y4.175I1.325J0.000F500.0
N1810G3X19.325Y5.500I0.000J1.325
N1820G3X18.000Y6.825I-1.325J0.000
N1830G3X16.675Y5.500I0.000J-1.325
N1840G1Z-8.000F60.0
N1850G3X18.000Y4.175I1.325J0.000F500.0
N1860G3X19.325Y5.500I0.000J1.325
N1870G3X18.000Y6.825I-1.325J0.000
N1880G3X16.675Y5.500I0.000J-1.325
N1890G1Z-8.500F60.0
N1900G3X18.000Y4.175I1.325J0.000F500.0
N1910G3X19.325Y5.500I0.000J1.325
N1920G3X18.000Y6.825I-1.325J0.000
N1930G3X16.675Y5.500I0.000J-1.325
N1940G00Z6.000
N1950G00X28.675
N1960G1Z-0.500F60.0
N1970G3X30.000Y4.175I1.325J0.000F500.0
N1980G3X31.325Y5.500I0.000J1.325
N1990G3X30.000Y6.825I-1.325J0.000
N2000G3X28.675Y5.500I0.000J-1.325
N2010G1Z-1.000F60.0
N2020G3X30.000Y4.175I1.325J0.000F500.0
N2030G3X31.325Y5.500I0.000J1.325
N2040G3X30.000Y6.825I-1.325J0.000
N2050G3X28.675Y5.500I0.000J-1.325
N2060G1Z-1.500F60.0
N2070G3X30.000Y4.175I1.325J0.000F500.0
N2080G3X31.325Y5.500I0.000J1.325
N2090G3X30.000Y6.825I-1.325J0.000
N2100G3X28.675Y5.500I0.000J-1.325
N2110G1Z-2.000F60.0
N2120G3X30.000Y4.175I1.325J0.000F500.0
N2130G3X31.325Y5.500I0.000J1.325
N2140G3X30.000Y6.825I-1.325J0.000
N2150G3X28.675Y5.500I0.000J-1.325
N2160G1Z-2.500F60.0
N2170G3X30.000Y4.175I1.325J0.000F500.0
N2180G3X31.325Y5.500I0.000J1.325
N2190G3X30.000Y6.825I-1.325J0.000
N2200G3X28.675Y5.500I0.000J-1.325
N2210G1Z-3.000F60.0
N2220G3X30.000Y4.175I1.325J0.000F500.0
N2230G3X31.325Y5.500I0.000J1.325
N2240G3X30.000Y6.825I-1.325J0.000
N2250G3X28.675Y5.500I0.000J-1.325
N2260G1Z-3.500F60.0
N2270G3X30.000Y4.175I1.325J0.000F500.0
N2280G3X31.325Y5.500I0.000J1.325
N2290G3X30.000Y6.825I-1.325J0.000
N2300G3X28.675Y5.500I0.000J-1.325
N2310G1Z-4.000F60.0
N2320G3X30.000Y4.175I1.325J0.000F500.0
N2330G3X31.325Y5.500I0.000J1.325
N2340G3X30.000Y6.825I-1.325J0.000
N2350G3X28.675Y5.500I0.000J-1.325
N2360G1Z-4.500F60.0
N2370G3X30.000Y4.175I1.325J0.000F500.0
N2380G3X31.325Y5.500I0.000J1.325
N2390G3X30.000Y6.825I-1.325J0.000
N2400G3X28.675Y5.500I0.000J-1.325
N2410G1Z-5.000F60.0
N2420G3X30.000Y4.175I1.325J0.000F500.0
N2430G3X31.325Y5.500I0.000J1.325
N2440G3X30.000Y6.825I-1.325J0.000
N2450G3X28.675Y5.500I0.000J-1.325
N2460G1Z-5.500F60.0
N2470G3X30.000Y4.175I1.325J0.000F500.0
N2480G3X31.325Y5.500I0.000J1.325
N2490G3X30.000Y6.825I-1.325J0.000
N2500G3X28.675Y5.500I0.000J-1.325
N2510G1Z-6.000F60.0
N2520G3X30.000Y4.175I1.325J0.000F500.0
N2530G3X31.325Y5.500I0.000J1.325
N2540G3X30.000Y6.825I-1.325J0.000
N2550G3X28.675Y5.500I0.000J-1.325
N2560G1Z-6.500F60.0
N2570G3X30.000Y4.175I1.325J0.000F500.0
N2580G3X31.325Y5.500I0.000J1.325
N2590G3X30.000Y6.825I-1.325J0.000
N2600G3X28.675Y5.500I0.000J-1.325
N2610G1Z-7.000F60.0
N2620G3X30.000Y4.175I1.325J0.000F500.0
N2630G3X31.325Y5.500I0.000J1.325
N2640G3X30.000Y6.825I-1.325J0.000
N2650G3X28.675Y5.500I0.000J-1.325
N2660G1Z-7.500F60.0
N2670G3X30.000Y4.175I1.325J0.000F500.0
N2680G3X31.325Y5.500I0.000J1.325
N2690G3X30.000Y6.825I-1.325J0.000
N2700G3X28.675Y5.500I0.000J-1.325
N2710G1Z-8.000F60.0
N2720G3X30.000Y4.175I1.325J0.000F500.0
N2730G3X31.325Y5.500I0.000J1.325
N2740G3X30.000Y6.825I-1.325J0.000
N2750G3X28.675Y5.500I0.000J-1.325
N2760G1Z-8.500F60.0
N2770G3X30.000Y4.175I1.325J0.000F500.0
N2780G3X31.325Y5.500I0.000J1.325
N2790G3X30.000Y6.825I-1.325J0.000
N2800G3X28.675Y5.500I0.000J-1.325
N2810G00Z6.000
N2820G00X40.675
N2830G1Z-0.500F60.0
N2840G3X42.000Y4.175I1.325J0.000F500.0
N2850G3X43.325Y5.500I0.000J1.325
N2860G3X42.000Y6.825I-1.325J0.000
N2870G3X40.675Y5.500I0.000J-1.325
N2880G1Z-1.000F60.0
N2890G3X42.000Y4.175I1.325J0.000F500.0
N2900G3X43.325Y5.500I0.000J1.325
N2910G3X42.000Y6.825I-1.325J0.000
N2920G3X40.675Y5.500I0.000J-1.325
N2930G1Z-1.500F60.0
N2940G3X42.000Y4.175I1.325J0.000F500.0
N2950G3X43.325Y5.500I0.000J1.325
N2960G3X42.000Y6.825I-1.325J0.000
N2970G3X40.675Y5.500I0.000J-1.325
N2980G1Z-2.000F60.0
N2990G3X42.000Y4.175I1.325J0.000F500.0
N3000G3X43.325Y5.500I0.000J1.325
N3010G3X42.000Y6.825I-1.325J0.000
N3020G3X40.675Y5.500I0.000J-1.325
N3030G1Z-2.500F60.0
N3040G3X42.000Y4.175I1.325J0.000F500.0
N3050G3X43.325Y5.500I0.000J1.325
N3060G3X42.000Y6.825I-1.325J0.000
N3070G3X40.675Y5.500I0.000J-1.325
N3080G1Z-3.000F60.0
N3090G3X42.000Y4.175I1.325J0.000F500.0
N3100G3X43.325Y5.500I0.000J1.325
N3110G3X42.000Y6.825I-1.325J0.000
N3120G3X40.675Y5.500I0.000J-1.325
N3130G1Z-3.500F60.0
N3140G3X42.000Y4.175I1.325J0.000F500.0
N3150G3X43.325Y5.500I0.000J1.325
N3160G3X42.000Y6.825I-1.325J0.000
N3170G3X40.675Y5.500I0.000J-1.325
N3180G1Z-4.000F60.0
N3190G3X42.000Y4.175I1.325J0.000F500.0
N3200G3X43.325Y5.500I0.000J1.325
N3210G3X42.000Y6.825I-1.325J0.000
N3220G3X40.675Y5.500I0.000J-1.325
N3230G1Z-4.500F60.0
N3240G3X42.000Y4.175I1.325J0.000F500.0
N3250G3X43.325Y5.500I0.000J1.325
N3260G3X42.000Y6.825I-1.325J0.000
N3270G3X40.675Y5.500I0.000J-1.325
N3280G1Z-5.000F60.0
N3290G3X42.000Y4.175I1.325J0.000F500.0
N3300G3X43.325Y5.500I0.000J1.325
N3310G3X42.000Y6.825I-1.325J0.000
N3320G3X40.675Y5.500I0.000J-1.325
N3330G1Z-5.500F60.0
N3340G3X42.000Y4.175I1.325J0.000F500.0
N3350G3X43.325Y5.500I0.000J1.325
N3360G3X42.000Y6.825I-1.325J0.000
N3370G3X40.675Y5.500I0.000J-1.325
N3380G1Z-6.000F60.0
N3390G3X42.000Y4.175I1.325J0.000F500.0
N3400G3X43.325Y5.500I0.000J1.325
N3410G3X42.000Y6.825I-1.325J0.000
N3420G3X40.675Y5.500I0.000J-1.325
N3430G1Z-6.500F60.0
N3440G3X42.000Y4.175I1.325J0.000F500.0
N3450G3X43.325Y5.500I0.000J1.325
N3460G3X42.000Y6.825I-1.325J0.000
N3470G3X40.675Y5.500I0.000J-1.325
N3480G1Z-7.000F60.0
N3490G3X42.000Y4.175I1.325J0.000F500.0
N3500G3X43.325Y5.500I0.000J1.325
N3510G3X42.000Y6.825I-1.325J0.000
N3520G3X40.675Y5.500I0.000J-1.325
N3530G1Z-7.500F60.0
N3540G3X42.000Y4.175I1.325J0.000F500.0
N3550G3X43.325Y5.500I0.000J1.325
N3560G3X42.000Y6.825I-1.325J0.000
N3570G3X40.675Y5.500I0.000J-1.325
N3580G1Z-8.000F60.0
N3590G3X42.000Y4.175I1.325J0.000F500.0
N3600G3X43.325Y5.500I0.000J1.325
N3610G3X42.000Y6.825I-1.325J0.000
N3620G3X40.675Y5.500I0.000J-1.325
N3630G1Z-8.500F60.0
N3640G3X42.000Y4.175I1.325J0.000F500.0
N3650G3X43.325Y5.500I0.000J1.325
N3660G3X42.000Y6.825I-1.325J0.000
N3670G3X40.675Y5.500I0.000J-1.325
N3680G00Z6.000
N3690G00X42.000Y9.825
N3700G1Z-0.500F60.0
N3710G3X43.500Y11.325I0.000J1.500F500.0
N3720G3X42.000Y12.825I-1.500J0.000
N3730G3X40.500Y11.325I0.000J-1.500
N3740G3X42.000Y9.825I1.500J0.000
N3750G1Z-1.000F60.0
N3760G3X43.500Y11.325I0.000J1.500F500.0
N3770G3X42.000Y12.825I-1.500J0.000
N3780G3X40.500Y11.325I0.000J-1.500
N3790G3X42.000Y9.825I1.500J0.000
N3800G1Z-1.500F60.0
N3810G3X43.500Y11.325I0.000J1.500F500.0
N3820G3X42.000Y12.825I-1.500J0.000
N3830G3X40.500Y11.325I0.000J-1.500
N3840G3X42.000Y9.825I1.500J0.000
N3850G1Z-2.000F60.0
N3860G3X43.500Y11.325I0.000J1.500F500.0
N3870G3X42.000Y12.825I-1.500J0.000
N3880G3X40.500Y11.325I0.000J-1.500
N3890G3X42.000Y9.825I1.500J0.000
N3900G1Z-2.500F60.0
N3910G3X43.500Y11.325I0.000J1.500F500.0
N3920G3X42.000Y12.825I-1.500J0.000
N3930G3X40.500Y11.325I0.000J-1.500
N3940G3X42.000Y9.825I1.500J0.000
N3950G1Z-3.000F60.0
N3960G3X43.500Y11.325I0.000J1.500F500.0
N3970G3X42.000Y12.825I-1.500J0.000
N3980G3X40.500Y11.325I0.000J-1.500
N3990G3X42.000Y9.825I1.500J0.000
N4000G1Z-3.500F60.0
N4010G3X43.500Y11.325I0.000J1.500F500.0
N4020G3X42.000Y12.825I-1.500J0.000
N4030G3X40.500Y11.325I0.000J-1.500
N4040G3X42.000Y9.825I1.500J0.000
N4050G1Z-4.000F60.0
N4060G3X43.500Y11.325I0.000J1.500F500.0
N4070G3X42.000Y12.825I-1.500J0.000
N4080G3X40.500Y11.325I0.000J-1.500
N4090G3X42.000Y9.825I1.500J0.000
N4100G1Z-4.500F60.0
N4110G3X43.500Y11.325I0.000J1.500F500.0
N4120G3X42.000Y12.825I-1.500J0.000
N4130G3X40.500Y11.325I0.000J-1.500
N4140G3X42.000Y9.825I1.500J0.000
N4150G1Z-5.000F60.0
N4160G3X43.500Y11.325I0.000J1.500F500.0
N4170G3X42.000Y12.825I-1.500J0.000
N4180G3X40.500Y11.325I0.000J-1.500
N4190G3X42.000Y9.825I1.500J0.000
N4200G1Z-5.500F60.0
N4210G3X43.500Y11.325I0.000J1.500F500.0
N4220G3X42.000Y12.825I-1.500J0.000
N4230G3X40.500Y11.325I0.000J-1.500
N4240G3X42.000Y9.825I1.500J0.000
N4250G1Z-6.000F60.0
N4260G3X43.500Y11.325I0.000J1.500F500.0
N4270G3X42.000Y12.825I-1.500J0.000
N4280G3X40.500Y11.325I0.000J-1.500
N4290G3X42.000Y9.825I1.500J0.000
N4300G1Z-6.500F60.0
N4310G3X43.500Y11.325I0.000J1.500F500.0
N4320G3X42.000Y12.825I-1.500J0.000
N4330G3X40.500Y11.325I0.000J-1.500
N4340G3X42.000Y9.825I1.500J0.000
N4350G1Z-7.000F60.0
N4360G3X43.500Y11.325I0.000J1.500F500.0
N4370G3X42.000Y12.825I-1.500J0.000
N4380G3X40.500Y11.325I0.000J-1.500
N4390G3X42.000Y9.825I1.500J0.000
N4400G1Z-7.500F60.0
N4410G3X43.500Y11.325I0.000J1.500F500.0
N4420G3X42.000Y12.825I-1.500J0.000
N4430G3X40.500Y11.325I0.000J-1.500
N4440G3X42.000Y9.825I1.500J0.000
N4450G1Z-8.000F60.0
N4460G3X43.500Y11.325I0.000J1.500F500.0
N4470G3X42.000Y12.825I-1.500J0.000
N4480G3X40.500Y11.325I0.000J-1.500
N4490G3X42.000Y9.825I1.500J0.000
N4500G1Z-8.500F60.0
N4510G3X43.500Y11.325I0.000J1.500F500.0
N4520G3X42.000Y12.825I-1.500J0.000
N4530G3X40.500Y11.325I0.000J-1.500
N4540G3X42.000Y9.825I1.500J0.000
N4550G00Z6.000
N4560G00X31.500Y11.325
N4570G1Z-0.500F60.0
N4580G3X30.000Y12.825I-1.500J0.000F500.0
N4590G3X28.500Y11.325I0.000J-1.500
N4600G3X30.000Y9.825I1.500J0.000
N4610G3X31.500Y11.325I0.000J1.500
N4620G1Z-1.000F60.0
N4630G3X30.000Y12.825I-1.500J0.000F500.0
N4640G3X28.500Y11.325I0.000J-1.500
N4650G3X30.000Y9.825I1.500J0.000
N4660G3X31.500Y11.325I0.000J1.500
N4670G1Z-1.500F60.0
N4680G3X30.000Y12.825I-1.500J0.000F500.0
N4690G3X28.500Y11.325I0.000J-1.500
N4700G3X30.000Y9.825I1.500J0.000
N4710G3X31.500Y11.325I0.000J1.500
N4720G1Z-2.000F60.0
N4730G3X30.000Y12.825I-1.500J0.000F500.0
N4740G3X28.500Y11.325I0.000J-1.500
N4750G3X30.000Y9.825I1.500J0.000
N4760G3X31.500Y11.325I0.000J1.500
N4770G1Z-2.500F60.0
N4780G3X30.000Y12.825I-1.500J0.000F500.0
N4790G3X28.500Y11.325I0.000J-1.500
N4800G3X30.000Y9.825I1.500J0.000
N4810G3X31.500Y11.325I0.000J1.500
N4820G1Z-3.000F60.0
N4830G3X30.000Y12.825I-1.500J0.000F500.0
N4840G3X28.500Y11.325I0.000J-1.500
N4850G3X30.000Y9.825I1.500J0.000
N4860G3X31.500Y11.325I0.000J1.500
N4870G1Z-3.500F60.0
N4880G3X30.000Y12.825I-1.500J0.000F500.0
N4890G3X28.500Y11.325I0.000J-1.500
N4900G3X30.000Y9.825I1.500J0.000
N4910G3X31.500Y11.325I0.000J1.500
N4920G1Z-4.000F60.0
N4930G3X30.000Y12.825I-1.500J0.000F500.0
N4940G3X28.500Y11.325I0.000J-1.500
N4950G3X30.000Y9.825I1.500J0.000
N4960G3X31.500Y11.325I0.000J1.500
N4970G1Z-4.500F60.0
N4980G3X30.000Y12.825I-1.500J0.000F500.0
N4990G3X28.500Y11.325I0.000J-1.500
N5000G3X30.000Y9.825I1.500J0.000
N5010G3X31.500Y11.325I0.000J1.500
N5020G1Z-5.000F60.0
N5030G3X30.000Y12.825I-1.500J0.000F500.0
N5040G3X28.500Y11.325I0.000J-1.500
N5050G3X30.000Y9.825I1.500J0.000
N5060G3X31.500Y11.325I0.000J1.500
N5070G1Z-5.500F60.0
N5080G3X30.000Y12.825I-1.500J0.000F500.0
N5090G3X28.500Y11.325I0.000J-1.500
N5100G3X30.000Y9.825I1.500J0.000
N5110G3X31.500Y11.325I0.000J1.500
N5120G1Z-6.000F60.0
N5130G3X30.000Y12.825I-1.500J0.000F500.0
N5140G3X28.500Y11.325I0.000J-1.500
N5150G3X30.000Y9.825I1.500J0.000
N5160G3X31.500Y11.325I0.000J1.500
N5170G1Z-6.500F60.0
N5180G3X30.000Y12.825I-1.500J0.000F500.0
N5190G3X28.500Y11.325I0.000J-1.500
N5200G3X30.000Y9.825I1.500J0.000
N5210G3X31.500Y11.325I0.000J1.500
N5220G1Z-7.000F60.0
N5230G3X30.000Y12.825I-1.500J0.000F500.0
N5240G3X28.500Y11.325I0.000J-1.500
N5250G3X30.000Y9.825I1.500J0.000
N5260G3X31.500Y11.325I0.000J1.500
N5270G1Z-7.500F60.0
N5280G3X30.000Y12.825I-1.500J0.000F500.0
N5290G3X28.500Y11.325I0.000J-1.500
N5300G3X30.000Y9.825I1.500J0.000
N5310G3X31.500Y11.325I0.000J1.500
N5320G1Z-8.000F60.0
N5330G3X30.000Y12.825I-1.500J0.000F500.0
N5340G3X28.500Y11.325I0.000J-1.500
N5350G3X30.000Y9.825I1.500J0.000
N5360G3X31.500Y11.325I0.000J1.500
N5370G1Z-8.500F60.0
N5380G3X30.000Y12.825I-1.500J0.000F500.0
N5390G3X28.500Y11.325I0.000J-1.500
N5400G3X30.000Y9.825I1.500J0.000
N5410G3X31.500Y11.325I0.000J1.500
N5420G00Z6.000
N5430G00X19.500
N5440G1Z-0.500F60.0
N5450G3X18.000Y12.825I-1.500J0.000F500.0
N5460G3X16.500Y11.325I0.000J-1.500
N5470G3X18.000Y9.825I1.500J0.000
N5480G3X19.500Y11.325I0.000J1.500
N5490G1Z-1.000F60.0
N5500G3X18.000Y12.825I-1.500J0.000F500.0
N5510G3X16.500Y11.325I0.000J-1.500
N5520G3X18.000Y9.825I1.500J0.000
N5530G3X19.500Y11.325I0.000J1.500
N5540G1Z-1.500F60.0
N5550G3X18.000Y12.825I-1.500J0.000F500.0
N5560G3X16.500Y11.325I0.000J-1.500
N5570G3X18.000Y9.825I1.500J0.000
N5580G3X19.500Y11.325I0.000J1.500
N5590G1Z-2.000F60.0
N5600G3X18.000Y12.825I-1.500J0.000F500.0
N5610G3X16.500Y11.325I0.000J-1.500
N5620G3X18.000Y9.825I1.500J0.000
N5630G3X19.500Y11.325I0.000J1.500
N5640G1Z-2.500F60.0
N5650G3X18.000Y12.825I-1.500J0.000F500.0
N5660G3X16.500Y11.325I0.000J-1.500
N5670G3X18.000Y9.825I1.500J0.000
N5680G3X19.500Y11.325I0.000J1.500
N5690G1Z-3.000F60.0
N5700G3X18.000Y12.825I-1.500J0.000F500.0
N5710G3X16.500Y11.325I0.000J-1.500
N5720G3X18.000Y9.825I1.500J0.000
N5730G3X19.500Y11.325I0.000J1.500
N5740G1Z-3.500F60.0
N5750G3X18.000Y12.825I-1.500J0.000F500.0
N5760G3X16.500Y11.325I0.000J-1.500
N5770G3X18.000Y9.825I1.500J0.000
N5780G3X19.500Y11.325I0.000J1.500
N5790G1Z-4.000F60.0
N5800G3X18.000Y12.825I-1.500J0.000F500.0
N5810G3X16.500Y11.325I0.000J-1.500
N5820G3X18.000Y9.825I1.500J0.000
N5830G3X19.500Y11.325I0.000J1.500
N5840G1Z-4.500F60.0
N5850G3X18.000Y12.825I-1.500J0.000F500.0
N5860G3X16.500Y11.325I0.000J-1.500
N5870G3X18.000Y9.825I1.500J0.000
N5880G3X19.500Y11.325I0.000J1.500
N5890G1Z-5.000F60.0
N5900G3X18.000Y12.825I-1.500J0.000F500.0
N5910G3X16.500Y11.325I0.000J-1.500
N5920G3X18.000Y9.825I1.500J0.000
N5930G3X19.500Y11.325I0.000J1.500
N5940G1Z-5.500F60.0
N5950G3X18.000Y12.825I-1.500J0.000F500.0
N5960G3X16.500Y11.325I0.000J-1.500
N5970G3X18.000Y9.825I1.500J0.000
N5980G3X19.500Y11.325I0.000J1.500
N5990G1Z-6.000F60.0
N6000G3X18.000Y12.825I-1.500J0.000F500.0
N6010G3X16.500Y11.325I0.000J-1.500
N6020G3X18.000Y9.825I1.500J0.000
N6030G3X19.500Y11.325I0.000J1.500
N6040G1Z-6.500F60.0
N6050G3X18.000Y12.825I-1.500J0.000F500.0
N6060G3X16.500Y11.325I0.000J-1.500
N6070G3X18.000Y9.825I1.500J0.000
N6080G3X19.500Y11.325I0.000J1.500
N6090G1Z-7.000F60.0
N6100G3X18.000Y12.825I-1.500J0.000F500.0
N6110G3X16.500Y11.325I0.000J-1.500
N6120G3X18.000Y9.825I1.500J0.000
N6130G3X19.500Y11.325I0.000J1.500
N6140G1Z-7.500F60.0
N6150G3X18.000Y12.825I-1.500J0.000F500.0
N6160G3X16.500Y11.325I0.000J-1.500
N6170G3X18.000Y9.825I1.500J0.000
N6180G3X19.500Y11.325I0.000J1.500
N6190G1Z-8.000F60.0
N6200G3X18.000Y12.825I-1.500J0.000F500.0
N6210G3X16.500Y11.325I0.000J-1.500
N6220G3X18.000Y9.825I1.500J0.000
N6230G3X19.500Y11.325I0.000J1.500
N6240G1Z-8.500F60.0
N6250G3X18.000Y12.825I-1.500J0.000F500.0
N6260G3X16.500Y11.325I0.000J-1.500
N6270G3X18.000Y9.825I1.500J0.000
N6280G3X19.500Y11.325I0.000J1.500
N6290G00Z6.000
N6300G00X7.500
N6310G1Z-0.500F60.0
N6320G3X6.000Y12.825I-1.500J0.000F500.0
N6330G3X4.500Y11.325I0.000J-1.500
N6340G3X6.000Y9.825I1.500J0.000
N6350G3X7.500Y11.325I0.000J1.500
N6360G1Z-1.000F60.0
N6370G3X6.000Y12.825I-1.500J0.000F500.0
N6380G3X4.500Y11.325I0.000J-1.500
N6390G3X6.000Y9.825I1.500J0.000
N6400G3X7.500Y11.325I0.000J1.500
N6410G1Z-1.500F60.0
N6420G3X6.000Y12.825I-1.500J0.000F500.0
N6430G3X4.500Y11.325I0.000J-1.500
N6440G3X6.000Y9.825I1.500J0.000
N6450G3X7.500Y11.325I0.000J1.500
N6460G1Z-2.000F60.0
N6470G3X6.000Y12.825I-1.500J0.000F500.0
N6480G3X4.500Y11.325I0.000J-1.500
N6490G3X6.000Y9.825I1.500J0.000
N6500G3X7.500Y11.325I0.000J1.500
N6510G1Z-2.500F60.0
N6520G3X6.000Y12.825I-1.500J0.000F500.0
N6530G3X4.500Y11.325I0.000J-1.500
N6540G3X6.000Y9.825I1.500J0.000
N6550G3X7.500Y11.325I0.000J1.500
N6560G1Z-3.000F60.0
N6570G3X6.000Y12.825I-1.500J0.000F500.0
N6580G3X4.500Y11.325I0.000J-1.500
N6590G3X6.000Y9.825I1.500J0.000
N6600G3X7.500Y11.325I0.000J1.500
N6610G1Z-3.500F60.0
N6620G3X6.000Y12.825I-1.500J0.000F500.0
N6630G3X4.500Y11.325I0.000J-1.500
N6640G3X6.000Y9.825I1.500J0.000
N6650G3X7.500Y11.325I0.000J1.500
N6660G1Z-4.000F60.0
N6670G3X6.000Y12.825I-1.500J0.000F500.0
N6680G3X4.500Y11.325I0.000J-1.500
N6690G3X6.000Y9.825I1.500J0.000
N6700G3X7.500Y11.325I0.000J1.500
N6710G1Z-4.500F60.0
N6720G3X6.000Y12.825I-1.500J0.000F500.0
N6730G3X4.500Y11.325I0.000J-1.500
N6740G3X6.000Y9.825I1.500J0.000
N6750G3X7.500Y11.325I0.000J1.500
N6760G1Z-5.000F60.0
N6770G3X6.000Y12.825I-1.500J0.000F500.0
N6780G3X4.500Y11.325I0.000J-1.500
N6790G3X6.000Y9.825I1.500J0.000
N6800G3X7.500Y11.325I0.000J1.500
N6810G1Z-5.500F60.0
N6820G3X6.000Y12.825I-1.500J0.000F500.0
N6830G3X4.500Y11.325I0.000J-1.500
N6840G3X6.000Y9.825I1.500J0.000
N6850G3X7.500Y11.325I0.000J1.500
N6860G1Z-6.000F60.0
N6870G3X6.000Y12.825I-1.500J0.000F500.0
N6880G3X4.500Y11.325I0.000J-1.500
N6890G3X6.000Y9.825I1.500J0.000
N6900G3X7.500Y11.325I0.000J1.500
N6910G1Z-6.500F60.0
N6920G3X6.000Y12.825I-1.500J0.000F500.0
N6930G3X4.500Y11.325I0.000J-1.500
N6940G3X6.000Y9.825I1.500J0.000
N6950G3X7.500Y11.325I0.000J1.500
N6960G1Z-7.000F60.0
N6970G3X6.000Y12.825I-1.500J0.000F500.0
N6980G3X4.500Y11.325I0.000J-1.500
N6990G3X6.000Y9.825I1.500J0.000
N7000G3X7.500Y11.325I0.000J1.500
N7010G1Z-7.500F60.0
N7020G3X6.000Y12.825I-1.500J0.000F500.0
N7030G3X4.500Y11.325I0.000J-1.500
N7040G3X6.000Y9.825I1.500J0.000
N7050G3X7.500Y11.325I0.000J1.500
N7060G1Z-8.000F60.0
N7070G3X6.000Y12.825I-1.500J0.000F500.0
N7080G3X4.500Y11.325I0.000J-1.500
N7090G3X6.000Y9.825I1.500J0.000
N7100G3X7.500Y11.325I0.000J1.500
N7110G1Z-8.500F60.0
N7120G3X6.000Y12.825I-1.500J0.000F500.0
N7130G3X4.500Y11.325I0.000J-1.500
N7140G3X6.000Y9.825I1.500J0.000
N7150G3X7.500Y11.325I0.000J1.500
N7160G00Z6.000
N7170S4800M03
(ポケット 2)
()
N7200G00X44.471Y3.515Z6.000
N7210G1Z-0.500F60.0
N7220G1X43.986Y4.000F500.0
N7230G1X43.987Y4.325
N7240G1X44.472Y4.810
N7250G1X43.987Y4.325
N7260G1X4.000
N7270G1X3.515Y4.810
N7280G1X4.000Y4.325
N7290G1Y4.000
N7300G1X3.515Y3.515
N7310G1X4.000Y4.000
N7320G1X43.986
N7330G1X44.471Y3.515
N7340G1X45.485Y2.500
N7350G1X45.969Y2.015
N7360G1X45.485Y2.500
N7370G1X45.488Y5.825
N7380G1X45.974Y6.310
N7390G1X45.488Y5.825
N7400G1X2.500
N7410G1X2.015Y6.310
N7420G1X2.500Y5.825
N7430G1Y2.500
N7440G1X2.015Y2.015
N7450G1X2.500Y2.500
N7460G1X45.485
N7470G1X46.983Y1.000
N7480G1X46.990Y7.327
N7490G1X1.000Y7.325
N7500G1Y1.000
N7510G1X46.983
N7520G00Z6.000
N7530G00X44.471Y3.515
N7540G1Z-1.000F60.0
N7550G1X43.986Y4.000F500.0
N7560G1X43.987Y4.325
N7570G1X44.472Y4.810
N7580G1X43.987Y4.325
N7590G1X4.000
N7600G1X3.515Y4.810
N7610G1X4.000Y4.325
N7620G1Y4.000
N7630G1X3.515Y3.515
N7640G1X4.000Y4.000
N7650G1X43.986
N7660G1X44.471Y3.515
N7670G1X45.485Y2.500
N7680G1X45.969Y2.015
N7690G1X45.485Y2.500
N7700G1X45.488Y5.825
N7710G1X45.974Y6.310
N7720G1X45.488Y5.825
N7730G1X2.500
N7740G1X2.015Y6.310
N7750G1X2.500Y5.825
N7760G1Y2.500
N7770G1X2.015Y2.015
N7780G1X2.500Y2.500
N7790G1X45.485
N7800G1X46.983Y1.000
N7810G1X46.990Y7.327
N7820G1X1.000Y7.325
N7830G1Y1.000
N7840G1X46.983
N7850G00Z6.000
N7860G00X44.471Y3.515
N7870G1Z-1.500F60.0
N7880G1X43.986Y4.000F500.0
N7890G1X43.987Y4.325
N7900G1X44.472Y4.810
N7910G1X43.987Y4.325
N7920G1X4.000
N7930G1X3.515Y4.810
N7940G1X4.000Y4.325
N7950G1Y4.000
N7960G1X3.515Y3.515
N7970G1X4.000Y4.000
N7980G1X43.986
N7990G1X44.471Y3.515
N8000G1X45.485Y2.500
N8010G1X45.969Y2.015
N8020G1X45.485Y2.500
N8030G1X45.488Y5.825
N8040G1X45.974Y6.310
N8050G1X45.488Y5.825
N8060G1X2.500
N8070G1X2.015Y6.310
N8080G1X2.500Y5.825
N8090G1Y2.500
N8100G1X2.015Y2.015
N8110G1X2.500Y2.500
N8120G1X45.485
N8130G1X46.983Y1.000
N8140G1X46.990Y7.327
N8150G1X1.000Y7.325
N8160G1Y1.000
N8170G1X46.983
N8180G00Z6.000
N8190G00X44.471Y3.515
N8200G1Z-2.000F60.0
N8210G1X43.986Y4.000F500.0
N8220G1X43.987Y4.325
N8230G1X44.472Y4.810
N8240G1X43.987Y4.325
N8250G1X4.000
N8260G1X3.515Y4.810
N8270G1X4.000Y4.325
N8280G1Y4.000
N8290G1X3.515Y3.515
N8300G1X4.000Y4.000
N8310G1X43.986
N8320G1X44.471Y3.515
N8330G1X45.485Y2.500
N8340G1X45.969Y2.015
N8350G1X45.485Y2.500
N8360G1X45.488Y5.825
N8370G1X45.974Y6.310
N8380G1X45.488Y5.825
N8390G1X2.500
N8400G1X2.015Y6.310
N8410G1X2.500Y5.825
N8420G1Y2.500
N8430G1X2.015Y2.015
N8440G1X2.500Y2.500
N8450G1X45.485
N8460G1X46.983Y1.000
N8470G1X46.990Y7.327
N8480G1X1.000Y7.325
N8490G1Y1.000
N8500G1X46.983
N8510G00Z6.000
N8520S4800M03
(輪郭 2)
()
N8550G00X1.000Y2.000Z6.000
N8560G1Z-0.500F60.0
N8570G1Y2.169F500.0
N8580G1Y4.169
N8590G1Y6.169
N8600G1Y11.325
N8610G2X4.011Y15.912I5.000J0.000
N8620G1X4.646Y16.138
N8630G1X5.319Y16.278
N8640G1X6.011Y16.325
N8650G1X6.703Y16.275
N8660G1X7.375Y16.132
N8670G1X8.009Y15.904
N8680G2X11.000Y11.325I-2.009J-4.579
N8690G1Y6.310
N8700G1Y4.310
N8710G1Y2.310
N8720G1Y2.000
N8730G2X10.000Y1.000I-1.000J0.000
N8740G1X9.000
N8750G2X8.000Y2.000I0.000J1.000
N8760G1Y0.500
N8770G2X7.000Y-0.500I-1.000J0.000
N8780G1X5.000
N8790G2X4.000Y0.500I0.000J1.000
N8800G1Y2.000
N8810G2X3.000Y1.000I-1.000J0.000
N8820G1X2.000
N8830G2X1.000Y2.000I0.000J1.000
N8840G1Z-1.000F60.0
N8850G1Y2.169F500.0
N8860G1Y4.169
N8870G1Y6.169
N8880G1Y11.325
N8890G2X4.011Y15.912I5.000J0.000
N8900G1X4.646Y16.138
N8910G1X5.319Y16.278
N8920G1X6.011Y16.325
N8930G1X6.703Y16.275
N8940G1X7.375Y16.132
N8950G1X8.009Y15.904
N8960G2X11.000Y11.325I-2.009J-4.579
N8970G1Y6.310
N8980G1Y4.310
N8990G1Y2.310
N9000G1Y2.000
N9010G2X10.000Y1.000I-1.000J0.000
N9020G1X9.000
N9030G2X8.000Y2.000I0.000J1.000
N9040G1Y0.500
N9050G2X7.000Y-0.500I-1.000J0.000
N9060G1X5.000
N9070G2X4.000Y0.500I0.000J1.000
N9080G1Y2.000
N9090G2X3.000Y1.000I-1.000J0.000
N9100G1X2.000
N9110G2X1.000Y2.000I0.000J1.000
N9120G1Z-1.500F60.0
N9130G1Y2.169F500.0
N9140G1Y4.169
N9150G1Y6.169
N9160G1Y11.325
N9170G2X4.011Y15.912I5.000J0.000
N9180G1X4.646Y16.138
N9190G1X5.319Y16.278
N9200G1X6.011Y16.325
N9210G1X6.703Y16.275
N9220G1X7.375Y16.132
N9230G1X8.009Y15.904
N9240G2X11.000Y11.325I-2.009J-4.579
N9250G1Y6.310
N9260G1Y4.310
N9270G1Y2.310
N9280G1Y2.000
N9290G2X10.000Y1.000I-1.000J0.000
N9300G1X9.000
N9310G2X8.000Y2.000I0.000J1.000
N9320G1Y0.500
N9330G2X7.000Y-0.500I-1.000J0.000
N9340G1X5.000
N9350G2X4.000Y0.500I0.000J1.000
N9360G1Y2.000
N9370G2X3.000Y1.000I-1.000J0.000
N9380G1X2.000
N9390G2X1.000Y2.000I0.000J1.000
N9400G1Z-2.000F60.0
N9410G1Y2.169F500.0
N9420G1Y4.169
N9430G1Y6.169
N9440G1Y11.325
N9450G2X4.011Y15.912I5.000J0.000
N9460G1X4.646Y16.138
N9470G1X5.319Y16.278
N9480G1X6.011Y16.325
N9490G1X6.703Y16.275
N9500G1X7.375Y16.132
N9510G1X8.009Y15.904
N9520G2X11.000Y11.325I-2.009J-4.579
N9530G1Y6.310
N9540G1Y4.310
N9550G1Y2.310
N9560G1Y2.000
N9570G2X10.000Y1.000I-1.000J0.000
N9580G1X9.000
N9590G2X8.000Y2.000I0.000J1.000
N9600G1Y0.500
N9610G2X7.000Y-0.500I-1.000J0.000
N9620G1X5.000
N9630G2X4.000Y0.500I0.000J1.000
N9640G1Y2.000
N9650G2X3.000Y1.000I-1.000J0.000
N9660G1X2.000
N9670G2X1.000Y2.000I0.000J1.000
N9680G1Z-2.500F60.0
N9690G1Y2.169F500.0
N9700G1Y4.169
N9710G1Y6.169
N9720G1Y11.325
N9730G2X4.011Y15.912I5.000J0.000
N9740G1X4.646Y16.138
N9750G1X5.319Y16.278
N9760G1X6.011Y16.325
N9770G1X6.703Y16.275
N9780G1X7.375Y16.132
N9790G1X8.009Y15.904
N9800G2X11.000Y11.325I-2.009J-4.579
N9810G1Y6.310
N9820G1Y4.310
N9830G1Y2.310
N9840G1Y2.000
N9850G2X10.000Y1.000I-1.000J0.000
N9860G1X9.000
N9870G2X8.000Y2.000I0.000J1.000
N9880G1Y0.500
N9890G2X7.000Y-0.500I-1.000J0.000
N9900G1X5.000
N9910G2X4.000Y0.500I0.000J1.000
N9920G1Y2.000
N9930G2X3.000Y1.000I-1.000J0.000
N9940G1X2.000
N9950G2X1.000Y2.000I0.000J1.000
N9960G1Z-3.000F60.0
N9970G1Y2.169F500.0
N9980G1Y4.169
N9990G1Y6.169
N10000G1Y11.325
N10010G2X4.011Y15.912I5.000J0.000
N10020G1X4.646Y16.138
N10030G1X5.319Y16.278
N10040G1X6.011Y16.325
N10050G1X6.703Y16.275
N10060G1X7.375Y16.132
N10070G1X8.009Y15.904
N10080G2X11.000Y11.325I-2.009J-4.579
N10090G1Y6.310
N10100G1Y4.310
N10110G1Y2.310
N10120G1Y2.000
N10130G2X10.000Y1.000I-1.000J0.000
N10140G1X9.000
N10150G2X8.000Y2.000I0.000J1.000
N10160G1Y0.500
N10170G2X7.000Y-0.500I-1.000J0.000
N10180G1X5.000
N10190G2X4.000Y0.500I0.000J1.000
N10200G1Y2.000
N10210G2X3.000Y1.000I-1.000J0.000
N10220G1X2.000
N10230G2X1.000Y2.000I0.000J1.000
N10240G1Z-3.500F60.0
N10250G1Y2.169F500.0
N10260G1Y4.169
N10270G1Y6.169
N10280G1Y11.325
N10290G2X4.011Y15.912I5.000J0.000
N10300G1X4.646Y16.138
N10310G1X5.319Y16.278
N10320G1X6.011Y16.325
N10330G1X6.703Y16.275
N10340G1X7.375Y16.132
N10350G1X8.009Y15.904
N10360G2X11.000Y11.325I-2.009J-4.579
N10370G1Y6.310
N10380G1Y4.310
N10390G1Y2.310
N10400G1Y2.000
N10410G2X10.000Y1.000I-1.000J0.000
N10420G1X9.000
N10430G2X8.000Y2.000I0.000J1.000
N10440G1Y0.500
N10450G2X7.000Y-0.500I-1.000J0.000
N10460G1X5.000
N10470G2X4.000Y0.500I0.000J1.000
N10480G1Y2.000
N10490G2X3.000Y1.000I-1.000J0.000
N10500G1X2.000
N10510G2X1.000Y2.000I0.000J1.000
N10520G1Z-4.000F60.0
N10530G1Y2.169F500.0
N10540G1Y4.169
N10550G1Y6.169
N10560G1Y11.325
N10570G2X4.011Y15.912I5.000J0.000
N10580G1X4.646Y16.138
N10590G1X5.319Y16.278
N10600G1X6.011Y16.325
N10610G1X6.703Y16.275
N10620G1X7.375Y16.132
N10630G1X8.009Y15.904
N10640G2X11.000Y11.325I-2.009J-4.579
N10650G1Y6.310
N10660G1Y4.310
N10670G1Y2.310
N10680G1Y2.000
N10690G2X10.000Y1.000I-1.000J0.000
N10700G1X9.000
N10710G2X8.000Y2.000I0.000J1.000
N10720G1Y0.500
N10730G2X7.000Y-0.500I-1.000J0.000
N10740G1X5.000
N10750G2X4.000Y0.500I0.000J1.000
N10760G1Y2.000
N10770G2X3.000Y1.000I-1.000J0.000
N10780G1X2.000
N10790G2X1.000Y2.000I0.000J1.000
N10800G1Z-4.500F60.0
N10810G1Y2.169F500.0
N10820G1Y4.169
N10830G1Y6.169
N10840G1Y11.325
N10850G2X4.011Y15.912I5.000J0.000
N10860G1X4.646Y16.138
N10870G1X5.319Y16.278
N10880G1X6.011Y16.325
N10890G1X6.703Y16.275
N10900G1X7.375Y16.132
N10910G1X8.009Y15.904
N10920G2X11.000Y11.325I-2.009J-4.579
N10930G1Y6.310
N10940G1Y4.310
N10950G1Y2.310
N10960G1Y2.000
N10970G2X10.000Y1.000I-1.000J0.000
N10980G1X9.000
N10990G2X8.000Y2.000I0.000J1.000
N11000G1Y0.500
N11010G2X7.000Y-0.500I-1.000J0.000
N11020G1X5.000
N11030G2X4.000Y0.500I0.000J1.000
N11040G1Y2.000
N11050G2X3.000Y1.000I-1.000J0.000
N11060G1X2.000
N11070G2X1.000Y2.000I0.000J1.000
N11080G1Z-5.000F60.0
N11090G1Y2.169F500.0
N11100G1Y4.169
N11110G1Y6.169
N11120G1Y11.325
N11130G2X4.011Y15.912I5.000J0.000
N11140G1X4.646Y16.138
N11150G1X5.319Y16.278
N11160G1X6.011Y16.325
N11170G1X6.703Y16.275
N11180G1X7.375Y16.132
N11190G1X8.009Y15.904
N11200G2X11.000Y11.325I-2.009J-4.579
N11210G1Y6.310
N11220G1Y4.310
N11230G1Y2.310
N11240G1Y2.000
N11250G2X10.000Y1.000I-1.000J0.000
N11260G1X9.000
N11270G2X8.000Y2.000I0.000J1.000
N11280G1Y0.500
N11290G2X7.000Y-0.500I-1.000J0.000
N11300G1X5.000
N11310G2X4.000Y0.500I0.000J1.000
N11320G1Y2.000
N11330G2X3.000Y1.000I-1.000J0.000
N11340G1X2.000
N11350G2X1.000Y2.000I0.000J1.000
N11360G1Z-5.500F60.0
N11370G1Y2.169F500.0
N11380G1Y4.169
N11390G1Y6.169
N11400G1Y11.325
N11410G2X4.011Y15.912I5.000J0.000
N11420G1X4.646Y16.138
N11430G1X5.319Y16.278
N11440G1X6.011Y16.325
N11450G1X6.703Y16.275
N11460G1X7.375Y16.132
N11470G1X8.009Y15.904
N11480G2X11.000Y11.325I-2.009J-4.579
N11490G1Y6.310
N11500G1Y4.310
N11510G1Y2.310
N11520G1Y2.000
N11530G2X10.000Y1.000I-1.000J0.000
N11540G1X9.000
N11550G2X8.000Y2.000I0.000J1.000
N11560G1Y0.500
N11570G2X7.000Y-0.500I-1.000J0.000
N11580G1X5.000
N11590G2X4.000Y0.500I0.000J1.000
N11600G1Y2.000
N11610G2X3.000Y1.000I-1.000J0.000
N11620G1X2.000
N11630G2X1.000Y2.000I0.000J1.000
N11640G1Z-6.000F60.0
N11650G1Y2.169F500.0
N11660G1Y4.169
N11670G1Y6.169
N11680G1Y11.325
N11690G2X4.011Y15.912I5.000J0.000
N11700G1X4.646Y16.138
N11710G1X5.319Y16.278
N11720G1X6.011Y16.325
N11730G1X6.703Y16.275
N11740G1X7.375Y16.132
N11750G1X8.009Y15.904
N11760G2X11.000Y11.325I-2.009J-4.579
N11770G1Y6.310
N11780G1Y4.310
N11790G1Y2.310
N11800G1Y2.000
N11810G2X10.000Y1.000I-1.000J0.000
N11820G1X9.000
N11830G2X8.000Y2.000I0.000J1.000
N11840G1Y0.500
N11850G2X7.000Y-0.500I-1.000J0.000
N11860G1X5.000
N11870G2X4.000Y0.500I0.000J1.000
N11880G1Y2.000
N11890G2X3.000Y1.000I-1.000J0.000
N11900G1X2.000
N11910G2X1.000Y2.000I0.000J1.000
N11920G1Z-6.500F60.0
N11930G1Y2.169F500.0
N11940G1Y4.169
N11950G1Y6.169
N11960G1Y11.325
N11970G2X4.011Y15.912I5.000J0.000
N11980G1X4.646Y16.138
N11990G1X5.319Y16.278
N12000G1X6.011Y16.325
N12010G1X6.703Y16.275
N12020G1X7.375Y16.132
N12030G1X8.009Y15.904
N12040G2X11.000Y11.325I-2.009J-4.579
N12050G1Y6.310
N12060G1Y4.310
N12070G1Y2.310
N12080G1Y2.000
N12090G2X10.000Y1.000I-1.000J0.000
N12100G1X9.000
N12110G2X8.000Y2.000I0.000J1.000
N12120G1Y0.500
N12130G2X7.000Y-0.500I-1.000J0.000
N12140G1X5.000
N12150G2X4.000Y0.500I0.000J1.000
N12160G1Y2.000
N12170G2X3.000Y1.000I-1.000J0.000
N12180G1X2.000
N12190G2X1.000Y2.000I0.000J1.000
N12200G1Z-7.000F60.0
N12210G1Y2.169F500.0
N12220G1Y4.169Z-6.500
N12230G1Y6.169Z-7.000
N12240G1Y11.325
N12250G2X4.011Y15.912I5.000J0.000
N12260G1X4.646Y16.138
N12270G1X5.319Y16.278
N12280G1X6.011Y16.325Z-6.500
N12290G1X6.703Y16.275Z-7.000
N12300G1X7.375Y16.132
N12310G1X8.009Y15.904
N12320G2X11.000Y11.325I-2.009J-4.579
N12330G1Y6.310
N12340G1Y4.310Z-6.500
N12350G1Y2.310Z-7.000
N12360G1Y2.000
N12370G2X10.000Y1.000I-1.000J0.000
N12380G1X9.000
N12390G2X8.000Y2.000I0.000J1.000
N12400G1Y0.500
N12410G2X7.000Y-0.500I-1.000J0.000
N12420G1X5.000
N12430G2X4.000Y0.500I0.000J1.000
N12440G1Y2.000
N12450G2X3.000Y1.000I-1.000J0.000
N12460G1X2.000
N12470G2X1.000Y2.000I0.000J1.000
N12480G1Z-7.500F60.0
N12490G1Y2.169F500.0
N12500G1Y4.169Z-6.500
N12510G1Y6.169Z-7.500
N12520G1Y11.325
N12530G2X4.011Y15.912I5.000J0.000
N12540G1X4.646Y16.138
N12550G1X5.319Y16.278Z-7.175
N12560G1X6.011Y16.325Z-6.500
N12570G1X6.703Y16.275Z-7.175
N12580G1X7.375Y16.132Z-7.500
N12590G1X8.009Y15.904
N12600G2X11.000Y11.325I-2.009J-4.579
N12610G1Y6.310
N12620G1Y4.310Z-6.500
N12630G1Y2.310Z-7.500
N12640G1Y2.000
N12650G2X10.000Y1.000I-1.000J0.000
N12660G1X9.000
N12670G2X8.000Y2.000I0.000J1.000
N12680G1Y0.500
N12690G2X7.000Y-0.500I-1.000J0.000
N12700G1X5.000
N12710G2X4.000Y0.500I0.000J1.000
N12720G1Y2.000
N12730G2X3.000Y1.000I-1.000J0.000
N12740G1X2.000
N12750G2X1.000Y2.000I0.000J1.000
N12760G1Z-8.000F60.0
N12770G1Y2.169F500.0
N12780G1Y4.169Z-6.500
N12790G1Y6.169Z-8.000
N12800G1Y11.325
N12810G2X4.011Y15.912I5.000J0.000
N12820G1X4.646Y16.138Z-7.844
N12830G1X5.319Y16.278Z-7.175
N12840G1X6.011Y16.325Z-6.500
N12850G1X6.703Y16.275Z-7.175
N12860G1X7.375Y16.132Z-7.844
N12870G1X8.009Y15.904Z-8.000
N12880G2X11.000Y11.325I-2.009J-4.579
N12890G1Y6.310
N12900G1Y4.310Z-6.500
N12910G1Y2.310Z-8.000
N12920G1Y2.000
N12930G2X10.000Y1.000I-1.000J0.000
N12940G1X9.000
N12950G2X8.000Y2.000I0.000J1.000
N12960G1Y0.500
N12970G2X7.000Y-0.500I-1.000J0.000
N12980G1X5.000
N12990G2X4.000Y0.500I0.000J1.000
N13000G1Y2.000
N13010G2X3.000Y1.000I-1.000J0.000
N13020G1X2.000
N13030G2X1.000Y2.000I0.000J1.000
N13040G1Z-8.500F60.0
N13050G1Y2.169F500.0
N13060G1Y4.169Z-6.500
N13070G1Y6.169Z-8.500
N13080G1Y11.325
N13090G2X4.011Y15.912I5.000J0.000
N13100G1X4.646Y16.138Z-7.844
N13110G1X5.319Y16.278Z-7.175
N13120G1X6.011Y16.325Z-6.500
N13130G1X6.703Y16.275Z-7.175
N13140G1X7.375Y16.132Z-7.844
N13150G1X8.009Y15.904Z-8.500
N13160G2X11.000Y11.325I-2.009J-4.579
N13170G1Y6.310
N13180G1Y4.310Z-6.500
N13190G1Y2.310Z-8.500
N13200G1Y2.000
N13210G2X10.000Y1.000I-1.000J0.000
N13220G1X9.000
N13230G2X8.000Y2.000I0.000J1.000
N13240G1Y0.500
N13250G2X7.000Y-0.500I-1.000J0.000
N13260G1X5.000
N13270G2X4.000Y0.500I0.000J1.000
N13280G1Y2.000
N13290G2X3.000Y1.000I-1.000J0.000
N13300G1X2.000
N13310G2X1.000Y2.000I0.000J1.000
N13320G00Z6.000
N13330G00X13.000
N13340G1Z-0.500F60.0
N13350G1Y2.405F500.0
N13360G1Y4.405
N13370G1Y6.405
N13380G1Y11.325
N13390G2X16.269Y16.016I5.000J0.000
N13400G1X16.916Y16.206
N13410G1X17.595Y16.309
N13420G1X18.289Y16.317
N13430G1X18.977Y16.229
N13440G1X19.640Y16.048
N13450G1X20.260Y15.785
N13460G2X23.000Y11.325I-2.260J-4.460
N13470G1Y6.358
N13480G1Y4.358
N13490G1Y2.358
N13500G1Y2.000
N13510G2X22.000Y1.000I-1.000J0.000
N13520G1X21.000
N13530G2X20.000Y2.000I0.000J1.000
N13540G1Y0.500
N13550G2X19.000Y-0.500I-1.000J0.000
N13560G1X17.000
N13570G2X16.000Y0.500I0.000J1.000
N13580G1Y2.000
N13590G2X15.000Y1.000I-1.000J0.000
N13600G1X14.000
N13610G2X13.000Y2.000I0.000J1.000
N13620G1Z-1.000F60.0
N13630G1Y2.405F500.0
N13640G1Y4.405
N13650G1Y6.405
N13660G1Y11.325
N13670G2X16.269Y16.016I5.000J0.000
N13680G1X16.916Y16.206
N13690G1X17.595Y16.309
N13700G1X18.289Y16.317
N13710G1X18.977Y16.229
N13720G1X19.640Y16.048
N13730G1X20.260Y15.785
N13740G2X23.000Y11.325I-2.260J-4.460
N13750G1Y6.358
N13760G1Y4.358
N13770G1Y2.358
N13780G1Y2.000
N13790G2X22.000Y1.000I-1.000J0.000
N13800G1X21.000
N13810G2X20.000Y2.000I0.000J1.000
N13820G1Y0.500
N13830G2X19.000Y-0.500I-1.000J0.000
N13840G1X17.000
N13850G2X16.000Y0.500I0.000J1.000
N13860G1Y2.000
N13870G2X15.000Y1.000I-1.000J0.000
N13880G1X14.000
N13890G2X13.000Y2.000I0.000J1.000
N13900G1Z-1.500F60.0
N13910G1Y2.405F500.0
N13920G1Y4.405
N13930G1Y6.405
N13940G1Y11.325
N13950G2X16.269Y16.016I5.000J0.000
N13960G1X16.916Y16.206
N13970G1X17.595Y16.309
N13980G1X18.289Y16.317
N13990G1X18.977Y16.229
N14000G1X19.640Y16.048
N14010G1X20.260Y15.785
N14020G2X23.000Y11.325I-2.260J-4.460
N14030G1Y6.358
N14040G1Y4.358
N14050G1Y2.358
N14060G1Y2.000
N14070G2X22.000Y1.000I-1.000J0.000
N14080G1X21.000
N14090G2X20.000Y2.000I0.000J1.000
N14100G1Y0.500
N14110G2X19.000Y-0.500I-1.000J0.000
N14120G1X17.000
N14130G2X16.000Y0.500I0.000J1.000
N14140G1Y2.000
N14150G2X15.000Y1.000I-1.000J0.000
N14160G1X14.000
N14170G2X13.000Y2.000I0.000J1.000
N14180G1Z-2.000F60.0
N14190G1Y2.405F500.0
N14200G1Y4.405
N14210G1Y6.405
N14220G1Y11.325
N14230G2X16.269Y16.016I5.000J0.000
N14240G1X16.916Y16.206
N14250G1X17.595Y16.309
N14260G1X18.289Y16.317
N14270G1X18.977Y16.229
N14280G1X19.640Y16.048
N14290G1X20.260Y15.785
N14300G2X23.000Y11.325I-2.260J-4.460
N14310G1Y6.358
N14320G1Y4.358
N14330G1Y2.358
N14340G1Y2.000
N14350G2X22.000Y1.000I-1.000J0.000
N14360G1X21.000
N14370G2X20.000Y2.000I0.000J1.000
N14380G1Y0.500
N14390G2X19.000Y-0.500I-1.000J0.000
N14400G1X17.000
N14410G2X16.000Y0.500I0.000J1.000
N14420G1Y2.000
N14430G2X15.000Y1.000I-1.000J0.000
N14440G1X14.000
N14450G2X13.000Y2.000I0.000J1.000
N14460G1Z-2.500F60.0
N14470G1Y2.405F500.0
N14480G1Y4.405
N14490G1Y6.405
N14500G1Y11.325
N14510G2X16.269Y16.016I5.000J0.000
N14520G1X16.916Y16.206
N14530G1X17.595Y16.309
N14540G1X18.289Y16.317
N14550G1X18.977Y16.229
N14560G1X19.640Y16.048
N14570G1X20.260Y15.785
N14580G2X23.000Y11.325I-2.260J-4.460
N14590G1Y6.358
N14600G1Y4.358
N14610G1Y2.358
N14620G1Y2.000
N14630G2X22.000Y1.000I-1.000J0.000
N14640G1X21.000
N14650G2X20.000Y2.000I0.000J1.000
N14660G1Y0.500
N14670G2X19.000Y-0.500I-1.000J0.000
N14680G1X17.000
N14690G2X16.000Y0.500I0.000J1.000
N14700G1Y2.000
N14710G2X15.000Y1.000I-1.000J0.000
N14720G1X14.000
N14730G2X13.000Y2.000I0.000J1.000
N14740G1Z-3.000F60.0
N14750G1Y2.405F500.0
N14760G1Y4.405
N14770G1Y6.405
N14780G1Y11.325
N14790G2X16.269Y16.016I5.000J0.000
N14800G1X16.916Y16.206
N14810G1X17.595Y16.309
N14820G1X18.289Y16.317
N14830G1X18.977Y16.229
N14840G1X19.640Y16.048
N14850G1X20.260Y15.785
N14860G2X23.000Y11.325I-2.260J-4.460
N14870G1Y6.358
N14880G1Y4.358
N14890G1Y2.358
N14900G1Y2.000
N14910G2X22.000Y1.000I-1.000J0.000
N14920G1X21.000
N14930G2X20.000Y2.000I0.000J1.000
N14940G1Y0.500
N14950G2X19.000Y-0.500I-1.000J0.000
N14960G1X17.000
N14970G2X16.000Y0.500I0.000J1.000
N14980G1Y2.000
N14990G2X15.000Y1.000I-1.000J0.000
N15000G1X14.000
N15010G2X13.000Y2.000I0.000J1.000
N15020G1Z-3.500F60.0
N15030G1Y2.405F500.0
N15040G1Y4.405
N15050G1Y6.405
N15060G1Y11.325
N15070G2X16.269Y16.016I5.000J0.000
N15080G1X16.916Y16.206
N15090G1X17.595Y16.309
N15100G1X18.289Y16.317
N15110G1X18.977Y16.229
N15120G1X19.640Y16.048
N15130G1X20.260Y15.785
N15140G2X23.000Y11.325I-2.260J-4.460
N15150G1Y6.358
N15160G1Y4.358
N15170G1Y2.358
N15180G1Y2.000
N15190G2X22.000Y1.000I-1.000J0.000
N15200G1X21.000
N15210G2X20.000Y2.000I0.000J1.000
N15220G1Y0.500
N15230G2X19.000Y-0.500I-1.000J0.000
N15240G1X17.000
N15250G2X16.000Y0.500I0.000J1.000
N15260G1Y2.000
N15270G2X15.000Y1.000I-1.000J0.000
N15280G1X14.000
N15290G2X13.000Y2.000I0.000J1.000
N15300G1Z-4.000F60.0
N15310G1Y2.405F500.0
N15320G1Y4.405
N15330G1Y6.405
N15340G1Y11.325
N15350G2X16.269Y16.016I5.000J0.000
N15360G1X16.916Y16.206
N15370G1X17.595Y16.309
N15380G1X18.289Y16.317
N15390G1X18.977Y16.229
N15400G1X19.640Y16.048
N15410G1X20.260Y15.785
N15420G2X23.000Y11.325I-2.260J-4.460
N15430G1Y6.358
N15440G1Y4.358
N15450G1Y2.358
N15460G1Y2.000
N15470G2X22.000Y1.000I-1.000J0.000
N15480G1X21.000
N15490G2X20.000Y2.000I0.000J1.000
N15500G1Y0.500
N15510G2X19.000Y-0.500I-1.000J0.000
N15520G1X17.000
N15530G2X16.000Y0.500I0.000J1.000
N15540G1Y2.000
N15550G2X15.000Y1.000I-1.000J0.000
N15560G1X14.000
N15570G2X13.000Y2.000I0.000J1.000
N15580G1Z-4.500F60.0
N15590G1Y2.405F500.0
N15600G1Y4.405
N15610G1Y6.405
N15620G1Y11.325
N15630G2X16.269Y16.016I5.000J0.000
N15640G1X16.916Y16.206
N15650G1X17.595Y16.309
N15660G1X18.289Y16.317
N15670G1X18.977Y16.229
N15680G1X19.640Y16.048
N15690G1X20.260Y15.785
N15700G2X23.000Y11.325I-2.260J-4.460
N15710G1Y6.358
N15720G1Y4.358
N15730G1Y2.358
N15740G1Y2.000
N15750G2X22.000Y1.000I-1.000J0.000
N15760G1X21.000
N15770G2X20.000Y2.000I0.000J1.000
N15780G1Y0.500
N15790G2X19.000Y-0.500I-1.000J0.000
N15800G1X17.000
N15810G2X16.000Y0.500I0.000J1.000
N15820G1Y2.000
N15830G2X15.000Y1.000I-1.000J0.000
N15840G1X14.000
N15850G2X13.000Y2.000I0.000J1.000
N15860G1Z-5.000F60.0
N15870G1Y2.405F500.0
N15880G1Y4.405
N15890G1Y6.405
N15900G1Y11.325
N15910G2X16.269Y16.016I5.000J0.000
N15920G1X16.916Y16.206
N15930G1X17.595Y16.309
N15940G1X18.289Y16.317
N15950G1X18.977Y16.229
N15960G1X19.640Y16.048
N15970G1X20.260Y15.785
N15980G2X23.000Y11.325I-2.260J-4.460
N15990G1Y6.358
N16000G1Y4.358
N16010G1Y2.358
N16020G1Y2.000
N16030G2X22.000Y1.000I-1.000J0.000
N16040G1X21.000
N16050G2X20.000Y2.000I0.000J1.000
N16060G1Y0.500
N16070G2X19.000Y-0.500I-1.000J0.000
N16080G1X17.000
N16090G2X16.000Y0.500I0.000J1.000
N16100G1Y2.000
N16110G2X15.000Y1.000I-1.000J0.000
N16120G1X14.000
N16130G2X13.000Y2.000I0.000J1.000
N16140G1Z-5.500F60.0
N16150G1Y2.405F500.0
N16160G1Y4.405
N16170G1Y6.405
N16180G1Y11.325
N16190G2X16.269Y16.016I5.000J0.000
N16200G1X16.916Y16.206
N16210G1X17.595Y16.309
N16220G1X18.289Y16.317
N16230G1X18.977Y16.229
N16240G1X19.640Y16.048
N16250G1X20.260Y15.785
N16260G2X23.000Y11.325I-2.260J-4.460
N16270G1Y6.358
N16280G1Y4.358
N16290G1Y2.358
N16300G1Y2.000
N16310G2X22.000Y1.000I-1.000J0.000
N16320G1X21.000
N16330G2X20.000Y2.000I0.000J1.000
N16340G1Y0.500
N16350G2X19.000Y-0.500I-1.000J0.000
N16360G1X17.000
N16370G2X16.000Y0.500I0.000J1.000
N16380G1Y2.000
N16390G2X15.000Y1.000I-1.000J0.000
N16400G1X14.000
N16410G2X13.000Y2.000I0.000J1.000
N16420G1Z-6.000F60.0
N16430G1Y2.405F500.0
N16440G1Y4.405
N16450G1Y6.405
N16460G1Y11.325
N16470G2X16.269Y16.016I5.000J0.000
N16480G1X16.916Y16.206
N16490G1X17.595Y16.309
N16500G1X18.289Y16.317
N16510G1X18.977Y16.229
N16520G1X19.640Y16.048
N16530G1X20.260Y15.785
N16540G2X23.000Y11.325I-2.260J-4.460
N16550G1Y6.358
N16560G1Y4.358
N16570G1Y2.358
N16580G1Y2.000
N16590G2X22.000Y1.000I-1.000J0.000
N16600G1X21.000
N16610G2X20.000Y2.000I0.000J1.000
N16620G1Y0.500
N16630G2X19.000Y-0.500I-1.000J0.000
N16640G1X17.000
N16650G2X16.000Y0.500I0.000J1.000
N16660G1Y2.000
N16670G2X15.000Y1.000I-1.000J0.000
N16680G1X14.000
N16690G2X13.000Y2.000I0.000J1.000
N16700G1Z-6.500F60.0
N16710G1Y2.405F500.0
N16720G1Y4.405
N16730G1Y6.405
N16740G1Y11.325
N16750G2X16.269Y16.016I5.000J0.000
N16760G1X16.916Y16.206
N16770G1X17.595Y16.309
N16780G1X18.289Y16.317
N16790G1X18.977Y16.229
N16800G1X19.640Y16.048
N16810G1X20.260Y15.785
N16820G2X23.000Y11.325I-2.260J-4.460
N16830G1Y6.358
N16840G1Y4.358
N16850G1Y2.358
N16860G1Y2.000
N16870G2X22.000Y1.000I-1.000J0.000
N16880G1X21.000
N16890G2X20.000Y2.000I0.000J1.000
N16900G1Y0.500
N16910G2X19.000Y-0.500I-1.000J0.000
N16920G1X17.000
N16930G2X16.000Y0.500I0.000J1.000
N16940G1Y2.000
N16950G2X15.000Y1.000I-1.000J0.000
N16960G1X14.000
N16970G2X13.000Y2.000I0.000J1.000
N16980G1Z-7.000F60.0
N16990G1Y2.405F500.0
N17000G1Y4.405Z-6.500
N17010G1Y6.405Z-7.000
N17020G1Y11.325
N17030G2X16.269Y16.016I5.000J0.000
N17040G1X16.916Y16.206
N17050G1X17.595Y16.309
N17060G1X18.289Y16.317Z-6.500
N17070G1X18.977Y16.229Z-7.000
N17080G1X19.640Y16.048
N17090G1X20.260Y15.785
N17100G2X23.000Y11.325I-2.260J-4.460
N17110G1Y6.358
N17120G1Y4.358Z-6.500
N17130G1Y2.358Z-7.000
N17140G1Y2.000
N17150G2X22.000Y1.000I-1.000J0.000
N17160G1X21.000
N17170G2X20.000Y2.000I0.000J1.000
N17180G1Y0.500
N17190G2X19.000Y-0.500I-1.000J0.000
N17200G1X17.000
N17210G2X16.000Y0.500I0.000J1.000
N17220G1Y2.000
N17230G2X15.000Y1.000I-1.000J0.000
N17240G1X14.000
N17250G2X13.000Y2.000I0.000J1.000
N17260G1Z-7.500F60.0
N17270G1Y2.405F500.0
N17280G1Y4.405Z-6.500
N17290G1Y6.405Z-7.500
N17300G1Y11.325
N17310G2X16.269Y16.016I5.000J0.000
N17320G1X16.916Y16.206
N17330G1X17.595Y16.309Z-7.175
N17340G1X18.289Y16.317Z-6.500
N17350G1X18.977Y16.229Z-7.175
N17360G1X19.640Y16.048Z-7.500
N17370G1X20.260Y15.785
N17380G2X23.000Y11.325I-2.260J-4.460
N17390G1Y6.358
N17400G1Y4.358Z-6.500
N17410G1Y2.358Z-7.500
N17420G1Y2.000
N17430G2X22.000Y1.000I-1.000J0.000
N17440G1X21.000
N17450G2X20.000Y2.000I0.000J1.000
N17460G1Y0.500
N17470G2X19.000Y-0.500I-1.000J0.000
N17480G1X17.000
N17490G2X16.000Y0.500I0.000J1.000
N17500G1Y2.000
N17510G2X15.000Y1.000I-1.000J0.000
N17520G1X14.000
N17530G2X13.000Y2.000I0.000J1.000
N17540G1Z-8.000F60.0
N17550G1Y2.405F500.0
N17560G1Y4.405Z-6.500
N17570G1Y6.405Z-8.000
N17580G1Y11.325
N17590G2X16.269Y16.016I5.000J0.000
N17600G1X16.916Y16.206Z-7.844
N17610G1X17.595Y16.309Z-7.175
N17620G1X18.289Y16.317Z-6.500
N17630G1X18.977Y16.229Z-7.175
N17640G1X19.640Y16.048Z-7.844
N17650G1X20.260Y15.785Z-8.000
N17660G2X23.000Y11.325I-2.260J-4.460
N17670G1Y6.358
N17680G1Y4.358Z-6.500
N17690G1Y2.358Z-8.000
N17700G1Y2.000
N17710G2X22.000Y1.000I-1.000J0.000
N17720G1X21.000
N17730G2X20.000Y2.000I0.000J1.000
N17740G1Y0.500
N17750G2X19.000Y-0.500I-1.000J0.000
N17760G1X17.000
N17770G2X16.000Y0.500I0.000J1.000
N17780G1Y2.000
N17790G2X15.000Y1.000I-1.000J0.000
N17800G1X14.000
N17810G2X13.000Y2.000I0.000J1.000
N17820G1Z-8.500F60.0
N17830G1Y2.405F500.0
N17840G1Y4.405Z-6.500
N17850G1Y6.405Z-8.500
N17860G1Y11.325
N17870G2X16.269Y16.016I5.000J0.000
N17880G1X16.916Y16.206Z-7.844
N17890G1X17.595Y16.309Z-7.175
N17900G1X18.289Y16.317Z-6.500
N17910G1X18.977Y16.229Z-7.175
N17920G1X19.640Y16.048Z-7.844
N17930G1X20.260Y15.785Z-8.500
N17940G2X23.000Y11.325I-2.260J-4.460
N17950G1Y6.358
N17960G1Y4.358Z-6.500
N17970G1Y2.358Z-8.500
N17980G1Y2.000
N17990G2X22.000Y1.000I-1.000J0.000
N18000G1X21.000
N18010G2X20.000Y2.000I0.000J1.000
N18020G1Y0.500
N18030G2X19.000Y-0.500I-1.000J0.000
N18040G1X17.000
N18050G2X16.000Y0.500I0.000J1.000
N18060G1Y2.000
N18070G2X15.000Y1.000I-1.000J0.000
N18080G1X14.000
N18090G2X13.000Y2.000I0.000J1.000
N18100G00Z6.000
N18110G00X25.000
N18120G1Z-0.500F60.0
N18130G1Y2.216F500.0
N18140G1Y4.216
N18150G1Y6.216
N18160G1Y11.325
N18170G2X27.772Y15.801I5.000J0.000
N18180G1X28.483Y16.089
N18190G1X29.235Y16.266
N18200G1X29.619Y16.296
N18210G1X30.000Y16.325
N18220G1X30.769Y16.266
N18230G1X31.519Y16.089
N18240G2X35.000Y11.325I-1.519J-4.764
N18250G1Y6.310
N18260G1Y4.310
N18270G1Y2.310
N18280G1Y2.000
N18290G2X34.000Y1.000I-1.000J0.000
N18300G1X33.000
N18310G2X32.000Y2.000I0.000J1.000
N18320G1Y0.500
N18330G2X31.000Y-0.500I-1.000J0.000
N18340G1X29.000
N18350G2X28.000Y0.500I0.000J1.000
N18360G1Y2.000
N18370G2X27.000Y1.000I-1.000J0.000
N18380G1X26.000
N18390G2X25.000Y2.000I0.000J1.000
N18400G1Z-1.000F60.0
N18410G1Y2.216F500.0
N18420G1Y4.216
N18430G1Y6.216
N18440G1Y11.325
N18450G2X27.772Y15.801I5.000J0.000
N18460G1X28.483Y16.089
N18470G1X29.235Y16.266
N18480G1X29.619Y16.296
N18490G1X30.000Y16.325
N18500G1X30.769Y16.266
N18510G1X31.519Y16.089
N18520G2X35.000Y11.325I-1.519J-4.764
N18530G1Y6.310
N18540G1Y4.310
N18550G1Y2.310
N18560G1Y2.000
N18570G2X34.000Y1.000I-1.000J0.000
N18580G1X33.000
N18590G2X32.000Y2.000I0.000J1.000
N18600G1Y0.500
N18610G2X31.000Y-0.500I-1.000J0.000
N18620G1X29.000
N18630G2X28.000Y0.500I0.000J1.000
N18640G1Y2.000
N18650G2X27.000Y1.000I-1.000J0.000
N18660G1X26.000
N18670G2X25.000Y2.000I0.000J1.000
N18680G1Z-1.500F60.0
N18690G1Y2.216F500.0
N18700G1Y4.216
N18710G1Y6.216
N18720G1Y11.325
N18730G2X27.772Y15.801I5.000J0.000
N18740G1X28.483Y16.089
N18750G1X29.235Y16.266
N18760G1X29.619Y16.296
N18770G1X30.000Y16.325
N18780G1X30.769Y16.266
N18790G1X31.519Y16.089
N18800G2X35.000Y11.325I-1.519J-4.764
N18810G1Y6.310
N18820G1Y4.310
N18830G1Y2.310
N18840G1Y2.000
N18850G2X34.000Y1.000I-1.000J0.000
N18860G1X33.000
N18870G2X32.000Y2.000I0.000J1.000
N18880G1Y0.500
N18890G2X31.000Y-0.500I-1.000J0.000
N18900G1X29.000
N18910G2X28.000Y0.500I0.000J1.000
N18920G1Y2.000
N18930G2X27.000Y1.000I-1.000J0.000
N18940G1X26.000
N18950G2X25.000Y2.000I0.000J1.000
N18960G1Z-2.000F60.0
N18970G1Y2.216F500.0
N18980G1Y4.216
N18990G1Y6.216
N19000G1Y11.325
N19010G2X27.772Y15.801I5.000J0.000
N19020G1X28.483Y16.089
N19030G1X29.235Y16.266
N19040G1X29.619Y16.296
N19050G1X30.000Y16.325
N19060G1X30.769Y16.266
N19070G1X31.519Y16.089
N19080G2X35.000Y11.325I-1.519J-4.764
N19090G1Y6.310
N19100G1Y4.310
N19110G1Y2.310
N19120G1Y2.000
N19130G2X34.000Y1.000I-1.000J0.000
N19140G1X33.000
N19150G2X32.000Y2.000I0.000J1.000
N19160G1Y0.500
N19170G2X31.000Y-0.500I-1.000J0.000
N19180G1X29.000
N19190G2X28.000Y0.500I0.000J1.000
N19200G1Y2.000
N19210G2X27.000Y1.000I-1.000J0.000
N19220G1X26.000
N19230G2X25.000Y2.000I0.000J1.000
N19240G1Z-2.500F60.0
N19250G1Y2.216F500.0
N19260G1Y4.216
N19270G1Y6.216
N19280G1Y11.325
N19290G2X27.772Y15.801I5.000J0.000
N19300G1X28.483Y16.089
N19310G1X29.235Y16.266
N19320G1X29.619Y16.296
N19330G1X30.000Y16.325
N19340G1X30.769Y16.266
N19350G1X31.519Y16.089
N19360G2X35.000Y11.325I-1.519J-4.764
N19370G1Y6.310
N19380G1Y4.310
N19390G1Y2.310
N19400G1Y2.000
N19410G2X34.000Y1.000I-1.000J0.000
N19420G1X33.000
N19430G2X32.000Y2.000I0.000J1.000
N19440G1Y0.500
N19450G2X31.000Y-0.500I-1.000J0.000
N19460G1X29.000
N19470G2X28.000Y0.500I0.000J1.000
N19480G1Y2.000
N19490G2X27.000Y1.000I-1.000J0.000
N19500G1X26.000
N19510G2X25.000Y2.000I0.000J1.000
N19520G1Z-3.000F60.0
N19530G1Y2.216F500.0
N19540G1Y4.216
N19550G1Y6.216
N19560G1Y11.325
N19570G2X27.772Y15.801I5.000J0.000
N19580G1X28.483Y16.089
N19590G1X29.235Y16.266
N19600G1X29.619Y16.296
N19610G1X30.000Y16.325
N19620G1X30.769Y16.266
N19630G1X31.519Y16.089
N19640G2X35.000Y11.325I-1.519J-4.764
N19650G1Y6.310
N19660G1Y4.310
N19670G1Y2.310
N19680G1Y2.000
N19690G2X34.000Y1.000I-1.000J0.000
N19700G1X33.000
N19710G2X32.000Y2.000I0.000J1.000
N19720G1Y0.500
N19730G2X31.000Y-0.500I-1.000J0.000
N19740G1X29.000
N19750G2X28.000Y0.500I0.000J1.000
N19760G1Y2.000
N19770G2X27.000Y1.000I-1.000J0.000
N19780G1X26.000
N19790G2X25.000Y2.000I0.000J1.000
N19800G1Z-3.500F60.0
N19810G1Y2.216F500.0
N19820G1Y4.216
N19830G1Y6.216
N19840G1Y11.325
N19850G2X27.772Y15.801I5.000J0.000
N19860G1X28.483Y16.089
N19870G1X29.235Y16.266
N19880G1X29.619Y16.296
N19890G1X30.000Y16.325
N19900G1X30.769Y16.266
N19910G1X31.519Y16.089
N19920G2X35.000Y11.325I-1.519J-4.764
N19930G1Y6.310
N19940G1Y4.310
N19950G1Y2.310
N19960G1Y2.000
N19970G2X34.000Y1.000I-1.000J0.000
N19980G1X33.000
N19990G2X32.000Y2.000I0.000J1.000
N20000G1Y0.500
N20010G2X31.000Y-0.500I-1.000J0.000
N20020G1X29.000
N20030G2X28.000Y0.500I0.000J1.000
N20040G1Y2.000
N20050G2X27.000Y1.000I-1.000J0.000
N20060G1X26.000
N20070G2X25.000Y2.000I0.000J1.000
N20080G1Z-4.000F60.0
N20090G1Y2.216F500.0
N20100G1Y4.216
N20110G1Y6.216
N20120G1Y11.325
N20130G2X27.772Y15.801I5.000J0.000
N20140G1X28.483Y16.089
N20150G1X29.235Y16.266
N20160G1X29.619Y16.296
N20170G1X30.000Y16.325
N20180G1X30.769Y16.266
N20190G1X31.519Y16.089
N20200G2X35.000Y11.325I-1.519J-4.764
N20210G1Y6.310
N20220G1Y4.310
N20230G1Y2.310
N20240G1Y2.000
N20250G2X34.000Y1.000I-1.000J0.000
N20260G1X33.000
N20270G2X32.000Y2.000I0.000J1.000
N20280G1Y0.500
N20290G2X31.000Y-0.500I-1.000J0.000
N20300G1X29.000
N20310G2X28.000Y0.500I0.000J1.000
N20320G1Y2.000
N20330G2X27.000Y1.000I-1.000J0.000
N20340G1X26.000
N20350G2X25.000Y2.000I0.000J1.000
N20360G1Z-4.500F60.0
N20370G1Y2.216F500.0
N20380G1Y4.216
N20390G1Y6.216
N20400G1Y11.325
N20410G2X27.772Y15.801I5.000J0.000
N20420G1X28.483Y16.089
N20430G1X29.235Y16.266
N20440G1X29.619Y16.296
N20450G1X30.000Y16.325
N20460G1X30.769Y16.266
N20470G1X31.519Y16.089
N20480G2X35.000Y11.325I-1.519J-4.764
N20490G1Y6.310
N20500G1Y4.310
N20510G1Y2.310
N20520G1Y2.000
N20530G2X34.000Y1.000I-1.000J0.000
N20540G1X33.000
N20550G2X32.000Y2.000I0.000J1.000
N20560G1Y0.500
N20570G2X31.000Y-0.500I-1.000J0.000
N20580G1X29.000
N20590G2X28.000Y0.500I0.000J1.000
N20600G1Y2.000
N20610G2X27.000Y1.000I-1.000J0.000
N20620G1X26.000
N20630G2X25.000Y2.000I0.000J1.000
N20640G1Z-5.000F60.0
N20650G1Y2.216F500.0
N20660G1Y4.216
N20670G1Y6.216
N20680G1Y11.325
N20690G2X27.772Y15.801I5.000J0.000
N20700G1X28.483Y16.089
N20710G1X29.235Y16.266
N20720G1X29.619Y16.296
N20730G1X30.000Y16.325
N20740G1X30.769Y16.266
N20750G1X31.519Y16.089
N20760G2X35.000Y11.325I-1.519J-4.764
N20770G1Y6.310
N20780G1Y4.310
N20790G1Y2.310
N20800G1Y2.000
N20810G2X34.000Y1.000I-1.000J0.000
N20820G1X33.000
N20830G2X32.000Y2.000I0.000J1.000
N20840G1Y0.500
N20850G2X31.000Y-0.500I-1.000J0.000
N20860G1X29.000
N20870G2X28.000Y0.500I0.000J1.000
N20880G1Y2.000
N20890G2X27.000Y1.000I-1.000J0.000
N20900G1X26.000
N20910G2X25.000Y2.000I0.000J1.000
N20920G1Z-5.500F60.0
N20930G1Y2.216F500.0
N20940G1Y4.216
N20950G1Y6.216
N20960G1Y11.325
N20970G2X27.772Y15.801I5.000J0.000
N20980G1X28.483Y16.089
N20990G1X29.235Y16.266
N21000G1X29.619Y16.296
N21010G1X30.000Y16.325
N21020G1X30.769Y16.266
N21030G1X31.519Y16.089
N21040G2X35.000Y11.325I-1.519J-4.764
N21050G1Y6.310
N21060G1Y4.310
N21070G1Y2.310
N21080G1Y2.000
N21090G2X34.000Y1.000I-1.000J0.000
N21100G1X33.000
N21110G2X32.000Y2.000I0.000J1.000
N21120G1Y0.500
N21130G2X31.000Y-0.500I-1.000J0.000
N21140G1X29.000
N21150G2X28.000Y0.500I0.000J1.000
N21160G1Y2.000
N21170G2X27.000Y1.000I-1.000J0.000
N21180G1X26.000
N21190G2X25.000Y2.000I0.000J1.000
N21200G1Z-6.000F60.0
N21210G1Y2.216F500.0
N21220G1Y4.216
N21230G1Y6.216
N21240G1Y11.325
N21250G2X27.772Y15.801I5.000J0.000
N21260G1X28.483Y16.089
N21270G1X29.235Y16.266
N21280G1X29.619Y16.296
N21290G1X30.000Y16.325
N21300G1X30.769Y16.266
N21310G1X31.519Y16.089
N21320G2X35.000Y11.325I-1.519J-4.764
N21330G1Y6.310
N21340G1Y4.310
N21350G1Y2.310
N21360G1Y2.000
N21370G2X34.000Y1.000I-1.000J0.000
N21380G1X33.000
N21390G2X32.000Y2.000I0.000J1.000
N21400G1Y0.500
N21410G2X31.000Y-0.500I-1.000J0.000
N21420G1X29.000
N21430G2X28.000Y0.500I0.000J1.000
N21440G1Y2.000
N21450G2X27.000Y1.000I-1.000J0.000
N21460G1X26.000
N21470G2X25.000Y2.000I0.000J1.000
N21480G1Z-6.500F60.0
N21490G1Y2.216F500.0
N21500G1Y4.216
N21510G1Y6.216
N21520G1Y11.325
N21530G2X27.772Y15.801I5.000J0.000
N21540G1X28.483Y16.089
N21550G1X29.235Y16.266
N21560G1X29.619Y16.296
N21570G1X30.000Y16.325
N21580G1X30.769Y16.266
N21590G1X31.519Y16.089
N21600G2X35.000Y11.325I-1.519J-4.764
N21610G1Y6.310
N21620G1Y4.310
N21630G1Y2.310
N21640G1Y2.000
N21650G2X34.000Y1.000I-1.000J0.000
N21660G1X33.000
N21670G2X32.000Y2.000I0.000J1.000
N21680G1Y0.500
N21690G2X31.000Y-0.500I-1.000J0.000
N21700G1X29.000
N21710G2X28.000Y0.500I0.000J1.000
N21720G1Y2.000
N21730G2X27.000Y1.000I-1.000J0.000
N21740G1X26.000
N21750G2X25.000Y2.000I0.000J1.000
N21760G1Z-7.000F60.0
N21770G1Y2.216F500.0
N21780G1Y4.216Z-6.500
N21790G1Y6.216Z-7.000
N21800G1Y11.325
N21810G2X27.772Y15.801I5.000J0.000
N21820G1X28.483Y16.089
N21830G1X29.235Y16.266Z-6.900
N21840G1X29.619Y16.296Z-6.500
N21850G1X30.000Y16.325Z-6.897
N21860G1X30.769Y16.266Z-7.000
N21870G1X31.519Y16.089
N21880G2X35.000Y11.325I-1.519J-4.764
N21890G1Y6.310
N21900G1Y4.310Z-6.500
N21910G1Y2.310Z-7.000
N21920G1Y2.000
N21930G2X34.000Y1.000I-1.000J0.000
N21940G1X33.000
N21950G2X32.000Y2.000I0.000J1.000
N21960G1Y0.500
N21970G2X31.000Y-0.500I-1.000J0.000
N21980G1X29.000
N21990G2X28.000Y0.500I0.000J1.000
N22000G1Y2.000
N22010G2X27.000Y1.000I-1.000J0.000
N22020G1X26.000
N22030G2X25.000Y2.000I0.000J1.000
N22040G1Z-7.500F60.0
N22050G1Y2.216F500.0
N22060G1Y4.216Z-6.500
N22070G1Y6.216Z-7.500
N22080G1Y11.325
N22090G2X27.772Y15.801I5.000J0.000
N22100G1X28.483Y16.089
N22110G1X29.235Y16.266Z-6.900
N22120G1X29.619Y16.296Z-6.500
N22130G1X30.000Y16.325Z-6.897
N22140G1X30.769Y16.266Z-7.500
N22150G1X31.519Y16.089
N22160G2X35.000Y11.325I-1.519J-4.764
N22170G1Y6.310
N22180G1Y4.310Z-6.500
N22190G1Y2.310Z-7.500
N22200G1Y2.000
N22210G2X34.000Y1.000I-1.000J0.000
N22220G1X33.000
N22230G2X32.000Y2.000I0.000J1.000
N22240G1Y0.500
N22250G2X31.000Y-0.500I-1.000J0.000
N22260G1X29.000
N22270G2X28.000Y0.500I0.000J1.000
N22280G1Y2.000
N22290G2X27.000Y1.000I-1.000J0.000
N22300G1X26.000
N22310G2X25.000Y2.000I0.000J1.000
N22320G1Z-8.000F60.0
N22330G1Y2.216F500.0
N22340G1Y4.216Z-6.500
N22350G1Y6.216Z-8.000
N22360G1Y11.325
N22370G2X27.772Y15.801I5.000J0.000
N22380G1X28.483Y16.089Z-7.702
N22390G1X29.235Y16.266Z-6.900
N22400G1X29.619Y16.296Z-6.500
N22410G1X30.000Y16.325Z-6.897
N22420G1X30.769Y16.266Z-7.699
N22430G1X31.519Y16.089Z-8.000
N22440G2X35.000Y11.325I-1.519J-4.764
N22450G1Y6.310
N22460G1Y4.310Z-6.500
N22470G1Y2.310Z-8.000
N22480G1Y2.000
N22490G2X34.000Y1.000I-1.000J0.000
N22500G1X33.000
N22510G2X32.000Y2.000I0.000J1.000
N22520G1Y0.500
N22530G2X31.000Y-0.500I-1.000J0.000
N22540G1X29.000
N22550G2X28.000Y0.500I0.000J1.000
N22560G1Y2.000
N22570G2X27.000Y1.000I-1.000J0.000
N22580G1X26.000
N22590G2X25.000Y2.000I0.000J1.000
N22600G1Z-8.500F60.0
N22610G1Y2.216F500.0
N22620G1Y4.216Z-6.500
N22630G1Y6.216Z-8.500
N22640G1Y11.325
N22650G2X27.772Y15.801I5.000J0.000
N22660G1X28.483Y16.089Z-7.702
N22670G1X29.235Y16.266Z-6.900
N22680G1X29.619Y16.296Z-6.500
N22690G1X30.000Y16.325Z-6.897
N22700G1X30.769Y16.266Z-7.699
N22710G1X31.519Y16.089Z-8.500
N22720G2X35.000Y11.325I-1.519J-4.764
N22730G1Y6.310
N22740G1Y4.310Z-6.500
N22750G1Y2.310Z-8.500
N22760G1Y2.000
N22770G2X34.000Y1.000I-1.000J0.000
N22780G1X33.000
N22790G2X32.000Y2.000I0.000J1.000
N22800G1Y0.500
N22810G2X31.000Y-0.500I-1.000J0.000
N22820G1X29.000
N22830G2X28.000Y0.500I0.000J1.000
N22840G1Y2.000
N22850G2X27.000Y1.000I-1.000J0.000
N22860G1X26.000
N22870G2X25.000Y2.000I0.000J1.000
N22880G00Z6.000
N22890G00X37.000
N22900G1Z-0.500F60.0
N22910G1Y2.783F500.0
N22920G1Y4.783
N22930G1Y6.783
N22940G1Y11.325
N22950G2X40.141Y15.967I5.000J0.000
N22960G1X40.782Y16.174
N22970G1X41.459Y16.296
N22980G1X42.152Y16.323
N22990G1X42.842Y16.254
N23000G1X43.510Y16.092
N23010G1X44.138Y15.845
N23020G2X47.000Y11.325I-2.138J-4.520
N23030G1Y6.641
N23040G1Y4.641
N23050G1Y2.641
N23060G1Y2.000
N23070G2X46.000Y1.000I-1.000J0.000
N23080G1X45.000
N23090G2X44.000Y2.000I0.000J1.000
N23100G1Y0.500
N23110G2X43.000Y-0.500I-1.000J0.000
N23120G1X41.000
N23130G2X40.000Y0.500I0.000J1.000
N23140G1Y2.000
N23150G2X39.000Y1.000I-1.000J0.000
N23160G1X38.000
N23170G2X37.000Y2.000I0.000J1.000
N23180G1Z-1.000F60.0
N23190G1Y2.783F500.0
N23200G1Y4.783
N23210G1Y6.783
N23220G1Y11.325
N23230G2X40.141Y15.967I5.000J0.000
N23240G1X40.782Y16.174
N23250G1X41.459Y16.296
N23260G1X42.152Y16.323
N23270G1X42.842Y16.254
N23280G1X43.510Y16.092
N23290G1X44.138Y15.845
N23300G2X47.000Y11.325I-2.138J-4.520
N23310G1Y6.641
N23320G1Y4.641
N23330G1Y2.641
N23340G1Y2.000
N23350G2X46.000Y1.000I-1.000J0.000
N23360G1X45.000
N23370G2X44.000Y2.000I0.000J1.000
N23380G1Y0.500
N23390G2X43.000Y-0.500I-1.000J0.000
N23400G1X41.000
N23410G2X40.000Y0.500I0.000J1.000
N23420G1Y2.000
N23430G2X39.000Y1.000I-1.000J0.000
N23440G1X38.000
N23450G2X37.000Y2.000I0.000J1.000
N23460G1Z-1.500F60.0
N23470G1Y2.783F500.0
N23480G1Y4.783
N23490G1Y6.783
N23500G1Y11.325
N23510G2X40.141Y15.967I5.000J0.000
N23520G1X40.782Y16.174
N23530G1X41.459Y16.296
N23540G1X42.152Y16.323
N23550G1X42.842Y16.254
N23560G1X43.510Y16.092
N23570G1X44.138Y15.845
N23580G2X47.000Y11.325I-2.138J-4.520
N23590G1Y6.641
N23600G1Y4.641
N23610G1Y2.641
N23620G1Y2.000
N23630G2X46.000Y1.000I-1.000J0.000
N23640G1X45.000
N23650G2X44.000Y2.000I0.000J1.000
N23660G1Y0.500
N23670G2X43.000Y-0.500I-1.000J0.000
N23680G1X41.000
N23690G2X40.000Y0.500I0.000J1.000
N23700G1Y2.000
N23710G2X39.000Y1.000I-1.000J0.000
N23720G1X38.000
N23730G2X37.000Y2.000I0.000J1.000
N23740G1Z-2.000F60.0
N23750G1Y2.783F500.0
N23760G1Y4.783
N23770G1Y6.783
N23780G1Y11.325
N23790G2X40.141Y15.967I5.000J0.000
N23800G1X40.782Y16.174
N23810G1X41.459Y16.296
N23820G1X42.152Y16.323
N23830G1X42.842Y16.254
N23840G1X43.510Y16.092
N23850G1X44.138Y15.845
N23860G2X47.000Y11.325I-2.138J-4.520
N23870G1Y6.641
N23880G1Y4.641
N23890G1Y2.641
N23900G1Y2.000
N23910G2X46.000Y1.000I-1.000J0.000
N23920G1X45.000
N23930G2X44.000Y2.000I0.000J1.000
N23940G1Y0.500
N23950G2X43.000Y-0.500I-1.000J0.000
N23960G1X41.000
N23970G2X40.000Y0.500I0.000J1.000
N23980G1Y2.000
N23990G2X39.000Y1.000I-1.000J0.000
N24000G1X38.000
N24010G2X37.000Y2.000I0.000J1.000
N24020G1Z-2.500F60.0
N24030G1Y2.783F500.0
N24040G1Y4.783
N24050G1Y6.783
N24060G1Y11.325
N24070G2X40.141Y15.967I5.000J0.000
N24080G1X40.782Y16.174
N24090G1X41.459Y16.296
N24100G1X42.152Y16.323
N24110G1X42.842Y16.254
N24120G1X43.510Y16.092
N24130G1X44.138Y15.845
N24140G2X47.000Y11.325I-2.138J-4.520
N24150G1Y6.641
N24160G1Y4.641
N24170G1Y2.641
N24180G1Y2.000
N24190G2X46.000Y1.000I-1.000J0.000
N24200G1X45.000
N24210G2X44.000Y2.000I0.000J1.000
N24220G1Y0.500
N24230G2X43.000Y-0.500I-1.000J0.000
N24240G1X41.000
N24250G2X40.000Y0.500I0.000J1.000
N24260G1Y2.000
N24270G2X39.000Y1.000I-1.000J0.000
N24280G1X38.000
N24290G2X37.000Y2.000I0.000J1.000
N24300G1Z-3.000F60.0
N24310G1Y2.783F500.0
N24320G1Y4.783
N24330G1Y6.783
N24340G1Y11.325
N24350G2X40.141Y15.967I5.000J0.000
N24360G1X40.782Y16.174
N24370G1X41.459Y16.296
N24380G1X42.152Y16.323
N24390G1X42.842Y16.254
N24400G1X43.510Y16.092
N24410G1X44.138Y15.845
N24420G2X47.000Y11.325I-2.138J-4.520
N24430G1Y6.641
N24440G1Y4.641
N24450G1Y2.641
N24460G1Y2.000
N24470G2X46.000Y1.000I-1.000J0.000
N24480G1X45.000
N24490G2X44.000Y2.000I0.000J1.000
N24500G1Y0.500
N24510G2X43.000Y-0.500I-1.000J0.000
N24520G1X41.000
N24530G2X40.000Y0.500I0.000J1.000
N24540G1Y2.000
N24550G2X39.000Y1.000I-1.000J0.000
N24560G1X38.000
N24570G2X37.000Y2.000I0.000J1.000
N24580G1Z-3.500F60.0
N24590G1Y2.783F500.0
N24600G1Y4.783
N24610G1Y6.783
N24620G1Y11.325
N24630G2X40.141Y15.967I5.000J0.000
N24640G1X40.782Y16.174
N24650G1X41.459Y16.296
N24660G1X42.152Y16.323
N24670G1X42.842Y16.254
N24680G1X43.510Y16.092
N24690G1X44.138Y15.845
N24700G2X47.000Y11.325I-2.138J-4.520
N24710G1Y6.641
N24720G1Y4.641
N24730G1Y2.641
N24740G1Y2.000
N24750G2X46.000Y1.000I-1.000J0.000
N24760G1X45.000
N24770G2X44.000Y2.000I0.000J1.000
N24780G1Y0.500
N24790G2X43.000Y-0.500I-1.000J0.000
N24800G1X41.000
N24810G2X40.000Y0.500I0.000J1.000
N24820G1Y2.000
N24830G2X39.000Y1.000I-1.000J0.000
N24840G1X38.000
N24850G2X37.000Y2.000I0.000J1.000
N24860G1Z-4.000F60.0
N24870G1Y2.783F500.0
N24880G1Y4.783
N24890G1Y6.783
N24900G1Y11.325
N24910G2X40.141Y15.967I5.000J0.000
N24920G1X40.782Y16.174
N24930G1X41.459Y16.296
N24940G1X42.152Y16.323
N24950G1X42.842Y16.254
N24960G1X43.510Y16.092
N24970G1X44.138Y15.845
N24980G2X47.000Y11.325I-2.138J-4.520
N24990G1Y6.641
N25000G1Y4.641
N25010G1Y2.641
N25020G1Y2.000
N25030G2X46.000Y1.000I-1.000J0.000
N25040G1X45.000
N25050G2X44.000Y2.000I0.000J1.000
N25060G1Y0.500
N25070G2X43.000Y-0.500I-1.000J0.000
N25080G1X41.000
N25090G2X40.000Y0.500I0.000J1.000
N25100G1Y2.000
N25110G2X39.000Y1.000I-1.000J0.000
N25120G1X38.000
N25130G2X37.000Y2.000I0.000J1.000
N25140G1Z-4.500F60.0
N25150G1Y2.783F500.0
N25160G1Y4.783
N25170G1Y6.783
N25180G1Y11.325
N25190G2X40.141Y15.967I5.000J0.000
N25200G1X40.782Y16.174
N25210G1X41.459Y16.296
N25220G1X42.152Y16.323
N25230G1X42.842Y16.254
N25240G1X43.510Y16.092
N25250G1X44.138Y15.845
N25260G2X47.000Y11.325I-2.138J-4.520
N25270G1Y6.641
N25280G1Y4.641
N25290G1Y2.641
N25300G1Y2.000
N25310G2X46.000Y1.000I-1.000J0.000
N25320G1X45.000
N25330G2X44.000Y2.000I0.000J1.000
N25340G1Y0.500
N25350G2X43.000Y-0.500I-1.000J0.000
N25360G1X41.000
N25370G2X40.000Y0.500I0.000J1.000
N25380G1Y2.000
N25390G2X39.000Y1.000I-1.000J0.000
N25400G1X38.000
N25410G2X37.000Y2.000I0.000J1.000
N25420G1Z-5.000F60.0
N25430G1Y2.783F500.0
N25440G1Y4.783
N25450G1Y6.783
N25460G1Y11.325
N25470G2X40.141Y15.967I5.000J0.000
N25480G1X40.782Y16.174
N25490G1X41.459Y16.296
N25500G1X42.152Y16.323
N25510G1X42.842Y16.254
N25520G1X43.510Y16.092
N25530G1X44.138Y15.845
N25540G2X47.000Y11.325I-2.138J-4.520
N25550G1Y6.641
N25560G1Y4.641
N25570G1Y2.641
N25580G1Y2.000
N25590G2X46.000Y1.000I-1.000J0.000
N25600G1X45.000
N25610G2X44.000Y2.000I0.000J1.000
N25620G1Y0.500
N25630G2X43.000Y-0.500I-1.000J0.000
N25640G1X41.000
N25650G2X40.000Y0.500I0.000J1.000
N25660G1Y2.000
N25670G2X39.000Y1.000I-1.000J0.000
N25680G1X38.000
N25690G2X37.000Y2.000I0.000J1.000
N25700G1Z-5.500F60.0
N25710G1Y2.783F500.0
N25720G1Y4.783
N25730G1Y6.783
N25740G1Y11.325
N25750G2X40.141Y15.967I5.000J0.000
N25760G1X40.782Y16.174
N25770G1X41.459Y16.296
N25780G1X42.152Y16.323
N25790G1X42.842Y16.254
N25800G1X43.510Y16.092
N25810G1X44.138Y15.845
N25820G2X47.000Y11.325I-2.138J-4.520
N25830G1Y6.641
N25840G1Y4.641
N25850G1Y2.641
N25860G1Y2.000
N25870G2X46.000Y1.000I-1.000J0.000
N25880G1X45.000
N25890G2X44.000Y2.000I0.000J1.000
N25900G1Y0.500
N25910G2X43.000Y-0.500I-1.000J0.000
N25920G1X41.000
N25930G2X40.000Y0.500I0.000J1.000
N25940G1Y2.000
N25950G2X39.000Y1.000I-1.000J0.000
N25960G1X38.000
N25970G2X37.000Y2.000I0.000J1.000
N25980G1Z-6.000F60.0
N25990G1Y2.783F500.0
N26000G1Y4.783
N26010G1Y6.783
N26020G1Y11.325
N26030G2X40.141Y15.967I5.000J0.000
N26040G1X40.782Y16.174
N26050G1X41.459Y16.296
N26060G1X42.152Y16.323
N26070G1X42.842Y16.254
N26080G1X43.510Y16.092
N26090G1X44.138Y15.845
N26100G2X47.000Y11.325I-2.138J-4.520
N26110G1Y6.641
N26120G1Y4.641
N26130G1Y2.641
N26140G1Y2.000
N26150G2X46.000Y1.000I-1.000J0.000
N26160G1X45.000
N26170G2X44.000Y2.000I0.000J1.000
N26180G1Y0.500
N26190G2X43.000Y-0.500I-1.000J0.000
N26200G1X41.000
N26210G2X40.000Y0.500I0.000J1.000
N26220G1Y2.000
N26230G2X39.000Y1.000I-1.000J0.000
N26240G1X38.000
N26250G2X37.000Y2.000I0.000J1.000
N26260G1Z-6.500F60.0
N26270G1Y2.783F500.0
N26280G1Y4.783
N26290G1Y6.783
N26300G1Y11.325
N26310G2X40.141Y15.967I5.000J0.000
N26320G1X40.782Y16.174
N26330G1X41.459Y16.296
N26340G1X42.152Y16.323
N26350G1X42.842Y16.254
N26360G1X43.510Y16.092
N26370G1X44.138Y15.845
N26380G2X47.000Y11.325I-2.138J-4.520
N26390G1Y6.641
N26400G1Y4.641
N26410G1Y2.641
N26420G1Y2.000
N26430G2X46.000Y1.000I-1.000J0.000
N26440G1X45.000
N26450G2X44.000Y2.000I0.000J1.000
N26460G1Y0.500
N26470G2X43.000Y-0.500I-1.000J0.000
N26480G1X41.000
N26490G2X40.000Y0.500I0.000J1.000
N26500G1Y2.000
N26510G2X39.000Y1.000I-1.000J0.000
N26520G1X38.000
N26530G2X37.000Y2.000I0.000J1.000
N26540G1Z-7.000F60.0
N26550G1Y2.783F500.0
N26560G1Y4.783Z-6.500
N26570G1Y6.783Z-7.000
N26580G1Y11.325
N26590G2X40.141Y15.967I5.000J0.000
N26600G1X40.782Y16.174
N26610G1X41.459Y16.296
N26620G1X42.152Y16.323Z-6.500
N26630G1X42.842Y16.254Z-7.000
N26640G1X43.510Y16.092
N26650G1X44.138Y15.845
N26660G2X47.000Y11.325I-2.138J-4.520
N26670G1Y6.641
N26680G1Y4.641Z-6.500
N26690G1Y2.641Z-7.000
N26700G1Y2.000
N26710G2X46.000Y1.000I-1.000J0.000
N26720G1X45.000
N26730G2X44.000Y2.000I0.000J1.000
N26740G1Y0.500
N26750G2X43.000Y-0.500I-1.000J0.000
N26760G1X41.000
N26770G2X40.000Y0.500I0.000J1.000
N26780G1Y2.000
N26790G2X39.000Y1.000I-1.000J0.000
N26800G1X38.000
N26810G2X37.000Y2.000I0.000J1.000
N26820G1Z-7.500F60.0
N26830G1Y2.783F500.0
N26840G1Y4.783Z-6.500
N26850G1Y6.783Z-7.500
N26860G1Y11.325
N26870G2X40.141Y15.967I5.000J0.000
N26880G1X40.782Y16.174
N26890G1X41.459Y16.296Z-7.175
N26900G1X42.152Y16.323Z-6.500
N26910G1X42.842Y16.254Z-7.175
N26920G1X43.510Y16.092Z-7.500
N26930G1X44.138Y15.845
N26940G2X47.000Y11.325I-2.138J-4.520
N26950G1Y6.641
N26960G1Y4.641Z-6.500
N26970G1Y2.641Z-7.500
N26980G1Y2.000
N26990G2X46.000Y1.000I-1.000J0.000
N27000G1X45.000
N27010G2X44.000Y2.000I0.000J1.000
N27020G1Y0.500
N27030G2X43.000Y-0.500I-1.000J0.000
N27040G1X41.000
N27050G2X40.000Y0.500I0.000J1.000
N27060G1Y2.000
N27070G2X39.000Y1.000I-1.000J0.000
N27080G1X38.000
N27090G2X37.000Y2.000I0.000J1.000
N27100G1Z-8.000F60.0
N27110G1Y2.783F500.0
N27120G1Y4.783Z-6.500
N27130G1Y6.783Z-8.000
N27140G1Y11.325
N27150G2X40.141Y15.967I5.000J0.000
N27160G1X40.782Y16.174Z-7.844
N27170G1X41.459Y16.296Z-7.175
N27180G1X42.152Y16.323Z-6.500
N27190G1X42.842Y16.254Z-7.175
N27200G1X43.510Y16.092Z-7.844
N27210G1X44.138Y15.845Z-8.000
N27220G2X47.000Y11.325I-2.138J-4.520
N27230G1Y6.641
N27240G1Y4.641Z-6.500
N27250G1Y2.641Z-8.000
N27260G1Y2.000
N27270G2X46.000Y1.000I-1.000J0.000
N27280G1X45.000
N27290G2X44.000Y2.000I0.000J1.000
N27300G1Y0.500
N27310G2X43.000Y-0.500I-1.000J0.000
N27320G1X41.000
N27330G2X40.000Y0.500I0.000J1.000
N27340G1Y2.000
N27350G2X39.000Y1.000I-1.000J0.000
N27360G1X38.000
N27370G2X37.000Y2.000I0.000J1.000
N27380G1Z-8.500F60.0
N27390G1Y2.783F500.0
N27400G1Y4.783Z-6.500
N27410G1Y6.783Z-8.500
N27420G1Y11.325
N27430G2X40.141Y15.967I5.000J0.000
N27440G1X40.782Y16.174Z-7.844
N27450G1X41.459Y16.296Z-7.175
N27460G1X42.152Y16.323Z-6.500
N27470G1X42.842Y16.254Z-7.175
N27480G1X43.510Y16.092Z-7.844
N27490G1X44.138Y15.845Z-8.500
N27500G2X47.000Y11.325I-2.138J-4.520
N27510G1Y6.641
N27520G1Y4.641Z-6.500
N27530G1Y2.641Z-8.500
N27540G1Y2.000
N27550G2X46.000Y1.000I-1.000J0.000
N27560G1X45.000
N27570G2X44.000Y2.000I0.000J1.000
N27580G1Y0.500
N27590G2X43.000Y-0.500I-1.000J0.000
N27600G1X41.000
N27610G2X40.000Y0.500I0.000J1.000
N27620G1Y2.000
N27630G2X39.000Y1.000I-1.000J0.000
N27640G1X38.000
N27650G2X37.000Y2.000I0.000J1.000
N27660G00Z6.000
N27670G00Z20.000
N27680G00X0.000Y0.000
N27690M09
N27700M30
%
